; GCode generated by CraftWare

G28 X0 Y0
G28 Z0

M190 S60 ;set bed temp (wait)
M109 S215 ;set head temp (wait)
; ------------------------------------
; Layer #0
; ------------------------------------
G21 ; mm
G90 ; abs
G92 E0 ; reset extr
M106 S0
;segType:Skirt
G0 F4800 E-1.0000
G0 F300 Z0.300
G0 X117.578 Y140.785 F10800
G0 F4800 E0.0000
G1 X121.553 Y144.601 E0.3436 F600
G1 X122.050 Y144.760 E0.3762
G1 X122.878 Y145.237 E0.4358
G1 X123.375 Y145.396 E0.4683
G1 X123.706 Y145.714 E0.4969
G1 X124.203 Y145.873 E0.5295
G1 X124.369 Y146.032 E0.5438
G1 X124.700 Y146.191 E0.5667
G1 X125.694 Y146.350 E0.6295
G1 X126.191 Y146.509 E0.6620
G1 X126.853 Y146.509 E0.7033
G1 X127.019 Y146.668 E0.7176
G1 X127.681 Y146.668 E0.7590
G1 X128.178 Y146.827 E0.7915
G1 X131.491 Y146.827 E0.9981
G1 X131.988 Y146.668 E1.0306
G1 X132.650 Y146.668 E1.0719
G1 X132.816 Y146.509 E1.0862
G1 X133.478 Y146.509 E1.1275
G1 X133.975 Y146.350 E1.1601
G1 X134.638 Y146.350 E1.2014
G1 X135.134 Y146.191 E1.2339
G1 X135.963 Y145.714 E1.2935
G1 X136.459 Y145.555 E1.3261
G1 X136.791 Y145.237 E1.3547
G1 X137.288 Y145.078 E1.3872
G1 X138.116 Y144.601 E1.4468
G1 X141.759 Y141.103 E1.7618
G1 X141.842 Y140.547 E1.7969
G1 X141.842 Y139.911 E1.8366
G1 X141.925 Y139.354 E1.8717
G1 X142.339 Y139.116 E1.9015
G1 X145.982 Y135.618 E2.2165
G1 X146.231 Y135.220 E2.2457
G1 X146.397 Y134.743 E2.2772
G1 X146.479 Y134.186 E2.3123
G1 X146.645 Y134.027 E2.3266
G1 X146.645 Y133.391 E2.3663
G1 X146.811 Y133.232 E2.3806
G1 X146.811 Y131.960 E2.4599
G1 X146.976 Y131.801 E2.4742
G1 X146.976 Y128.939 E2.6527
G1 X146.811 Y128.780 E2.6670
G1 X146.811 Y128.144 E2.7067
G1 X146.645 Y127.985 E2.7210
G1 X146.645 Y127.349 E2.7607
G1 X146.479 Y126.872 E2.7922
G1 X146.479 Y126.236 E2.8318
G1 X146.314 Y126.077 E2.8462
G1 X146.314 Y125.441 E2.8858
G1 X146.148 Y124.964 E2.9173
G1 X146.148 Y124.328 E2.9570
G1 X145.982 Y124.169 E2.9713
G1 X145.982 Y123.533 E3.0110
G1 X145.817 Y123.056 E3.0424
G1 X145.817 Y122.420 E3.0821
G1 X145.651 Y122.261 E3.0964
G1 X145.651 Y121.625 E3.1361
G1 X145.486 Y121.148 E3.1676
G1 X145.486 Y120.512 E3.2072
G1 X145.320 Y120.353 E3.2216
G1 X145.320 Y119.717 E3.2612
G1 X145.154 Y119.240 E3.2927
G1 X145.154 Y118.604 E3.3324
G1 X144.989 Y118.445 E3.3467
G1 X144.989 Y117.809 E3.3864
G1 X144.823 Y117.332 E3.4179
G1 X144.823 Y116.696 E3.4575
G1 X144.657 Y116.537 E3.4718
G1 X144.657 Y115.901 E3.5115
G1 X144.492 Y115.424 E3.5430
G1 X144.492 Y114.788 E3.5827
G1 X144.326 Y114.629 E3.5970
G1 X144.326 Y113.993 E3.6366
G1 X144.161 Y113.516 E3.6681
G1 X144.161 Y112.880 E3.7078
G1 X143.995 Y112.721 E3.7221
G1 X143.995 Y112.085 E3.7618
G1 X143.829 Y111.608 E3.7933
G1 X143.829 Y110.971 E3.8329
G1 X143.664 Y110.812 E3.8473
G1 X143.664 Y110.176 E3.8869
G1 X143.498 Y109.699 E3.9184
G1 X143.498 Y109.063 E3.9581
G1 X143.332 Y108.904 E3.9724
G1 X143.332 Y98.728 E4.6070
G1 X143.332 Y91.096 E5.0830
G1 X143.498 Y90.937 E5.0973
G1 X143.498 Y89.983 E5.1568
G1 X143.664 Y89.824 E5.1711
G1 X143.664 Y89.188 E5.2108
G1 X143.829 Y88.711 E5.2423
G1 X143.829 Y88.074 E5.2819
G1 X143.995 Y87.915 E5.2963
G1 X143.995 Y87.279 E5.3359
G1 X144.161 Y86.802 E5.3674
G1 X144.161 Y86.166 E5.4071
G1 X144.326 Y86.007 E5.4214
G1 X144.326 Y85.371 E5.4611
G1 X144.492 Y84.894 E5.4926
G1 X144.492 Y84.258 E5.5322
G1 X144.657 Y84.099 E5.5465
G1 X144.657 Y83.463 E5.5862
G1 X144.823 Y82.986 E5.6177
G1 X144.823 Y82.350 E5.6574
G1 X144.989 Y82.191 E5.6717
G1 X144.989 Y81.555 E5.7113
G1 X145.154 Y81.396 E5.7257
G1 X145.154 Y80.760 E5.7653
G1 X145.320 Y80.283 E5.7968
G1 X145.320 Y79.647 E5.8365
G1 X145.486 Y79.488 E5.8508
G1 X145.486 Y78.852 E5.8905
G1 X145.651 Y78.375 E5.9220
G1 X145.651 Y77.739 E5.9616
G1 X145.817 Y77.580 E5.9759
G1 X145.817 Y76.944 E6.0156
G1 X145.982 Y76.467 E6.0471
G1 X145.982 Y75.831 E6.0868
G1 X146.148 Y75.672 E6.1011
G1 X146.148 Y75.036 E6.1407
G1 X146.314 Y74.559 E6.1722
G1 X146.314 Y73.923 E6.2119
G1 X146.479 Y73.764 E6.2262
G1 X146.479 Y73.128 E6.2659
G1 X146.645 Y72.651 E6.2974
G1 X146.811 Y71.538 E6.3675
G1 X146.811 Y68.358 E6.5659
G1 X146.314 Y65.018 E6.7764
G1 X145.817 Y64.223 E6.8349
G1 X145.651 Y63.746 E6.8664
G1 X145.403 Y63.349 E6.8956
G1 X145.238 Y62.872 E6.9271
G1 X144.989 Y62.474 E6.9563
G1 X144.823 Y61.997 E6.9878
G1 X143.167 Y60.407 E7.1310
G1 X142.919 Y60.010 E7.1602
G1 X138.281 Y55.558 E7.5611
G1 X137.453 Y55.081 E7.6207
G1 X136.956 Y54.922 E7.6532
G1 X136.128 Y54.445 E7.7128
G1 X135.631 Y54.286 E7.7454
G1 X135.300 Y53.968 E7.7740
G1 X134.969 Y53.968 E7.7947
G1 X134.803 Y53.809 E7.8090
G1 X134.141 Y53.809 E7.8503
G1 X133.975 Y53.650 E7.8646
G1 X133.313 Y53.650 E7.9059
G1 X133.147 Y53.491 E7.9203
G1 X132.484 Y53.491 E7.9616
G1 X131.988 Y53.332 E7.9941
G1 X128.013 Y53.332 E8.2420
G1 X127.847 Y53.491 E8.2563
G1 X126.853 Y53.491 E8.3183
G1 X126.688 Y53.650 E8.3326
G1 X126.025 Y53.650 E8.3739
G1 X125.528 Y53.809 E8.4065
G1 X124.949 Y53.888 E8.4429
G1 X124.534 Y54.127 E8.4727
G1 X124.038 Y54.286 E8.5053
G1 X123.209 Y54.763 E8.5649
G1 X122.713 Y54.922 E8.5974
G1 X121.471 Y55.637 E8.6868
G1 X117.993 Y58.976 E8.9875
G1 X117.993 Y60.248 E9.0668
G1 X117.909 Y60.805 E9.1019
G1 X117.496 Y61.043 E9.1317
G1 X113.852 Y64.541 E9.4467
G1 X113.603 Y64.939 E9.4759
G1 X113.438 Y65.416 E9.5074
G1 X113.355 Y65.973 E9.5425
G1 X113.189 Y66.132 E9.5568
G1 X113.189 Y66.768 E9.5965
G1 X113.024 Y66.927 E9.6108
G1 X113.024 Y68.199 E9.6901
G1 X112.858 Y68.676 E9.7216
G1 X112.858 Y71.220 E9.8803
G1 X113.024 Y71.379 E9.8946
G1 X113.024 Y72.015 E9.9343
G1 X113.189 Y72.492 E9.9658
G1 X113.189 Y73.128 E10.0054
G1 X113.355 Y73.287 E10.0197
G1 X113.355 Y73.923 E10.0594
G1 X113.521 Y74.082 E10.0737
G1 X113.521 Y74.718 E10.1134
G1 X113.686 Y75.195 E10.1449
G1 X113.686 Y75.831 E10.1845
G1 X113.852 Y75.990 E10.1989
G1 X113.852 Y76.626 E10.2385
G1 X114.018 Y77.103 E10.2700
G1 X114.018 Y77.739 E10.3097
G1 X114.183 Y77.898 E10.3240
G1 X114.183 Y78.534 E10.3637
G1 X114.349 Y79.011 E10.3951
G1 X114.349 Y79.647 E10.4348
G1 X114.514 Y79.806 E10.4491
G1 X114.514 Y80.442 E10.4888
G1 X114.680 Y80.919 E10.5203
G1 X114.680 Y81.555 E10.5599
G1 X114.846 Y81.714 E10.5743
G1 X114.846 Y82.350 E10.6139
G1 X115.011 Y82.827 E10.6454
G1 X115.011 Y83.463 E10.6851
G1 X115.177 Y83.622 E10.6994
G1 X115.177 Y84.258 E10.7391
G1 X115.343 Y84.735 E10.7706
G1 X115.343 Y85.371 E10.8102
G1 X115.508 Y85.530 E10.8245
G1 X115.508 Y86.166 E10.8642
G1 X115.674 Y86.643 E10.8957
G1 X115.674 Y87.279 E10.9354
G1 X115.839 Y87.438 E10.9497
G1 X115.839 Y88.074 E10.9893
G1 X116.005 Y88.233 E11.0037
G1 X116.005 Y88.870 E11.0433
G1 X116.171 Y89.347 E11.0748
G1 X116.171 Y89.983 E11.1145
G1 X116.336 Y90.142 E11.1288
G1 X116.336 Y90.778 E11.1685
G1 X116.502 Y91.255 E11.2000
G1 X116.502 Y101.431 E11.8346
G1 X116.502 Y108.427 E12.2709
G1 X116.336 Y109.540 E12.3411
G1 X116.336 Y109.858 E12.3609
G1 X116.171 Y110.017 E12.3752
G1 X116.171 Y110.653 E12.4149
G1 X116.005 Y111.130 E12.4464
G1 X115.839 Y112.244 E12.5165
G1 X115.839 Y112.562 E12.5364
G1 X115.674 Y112.721 E12.5507
G1 X115.674 Y113.357 E12.5904
G1 X115.508 Y113.834 E12.6219
G1 X115.508 Y114.470 E12.6615
G1 X115.343 Y114.629 E12.6758
G1 X115.343 Y115.265 E12.7155
G1 X115.177 Y115.742 E12.7470
G1 X115.177 Y116.378 E12.7867
G1 X115.011 Y116.537 E12.8010
G1 X115.011 Y117.173 E12.8406
G1 X114.846 Y117.650 E12.8721
G1 X114.846 Y118.286 E12.9118
G1 X114.680 Y118.445 E12.9261
G1 X114.680 Y119.081 E12.9658
G1 X114.514 Y119.558 E12.9973
G1 X114.514 Y120.194 E13.0369
G1 X114.349 Y120.353 E13.0512
G1 X114.349 Y120.989 E13.0909
G1 X114.183 Y121.466 E13.1224
G1 X114.183 Y122.102 E13.1621
G1 X114.018 Y122.261 E13.1764
G1 X114.018 Y122.897 E13.2160
G1 X113.852 Y123.374 E13.2475
G1 X113.852 Y124.010 E13.2872
G1 X113.686 Y124.169 E13.3015
G1 X113.686 Y124.805 E13.3412
G1 X113.521 Y125.282 E13.3727
G1 X113.355 Y126.395 E13.4429
G1 X113.355 Y126.713 E13.4627
G1 X113.189 Y126.872 E13.4770
G1 X113.189 Y127.508 E13.5167
G1 X113.024 Y127.985 E13.5482
G1 X113.024 Y128.621 E13.5878
G1 X112.858 Y128.780 E13.6021
G1 X112.858 Y131.324 E13.7608
G1 X113.024 Y131.483 E13.7751
G1 X113.024 Y132.119 E13.8148
G1 X113.189 Y132.596 E13.8463
G1 X113.189 Y133.232 E13.8859
G1 X113.355 Y133.709 E13.9174
G1 X113.355 Y134.345 E13.9571
G1 X113.521 Y134.823 E13.9886
G1 X113.521 Y135.141 E14.0084
G1 X114.018 Y135.936 E14.0669
G1 X114.183 Y136.413 E14.0984
G1 X114.680 Y137.208 E14.1568
G1 X114.846 Y137.685 E14.1883
G1 X115.343 Y138.480 E14.2468
G1 X117.330 Y140.388 E14.4186
G1 X117.578 Y140.785 E14.4478
G0 F4800 E13.4478
G0 X128.095 Y133.550 F10800
G0 F4800 E14.4478
G1 X128.178 Y133.312 E14.4636 F600
G1 X128.841 Y133.312 E14.5049
G1 X129.337 Y133.153 E14.5374
G1 X130.663 Y133.153 E14.6201
G1 X131.159 Y133.312 E14.6526
G1 X131.739 Y133.391 E14.6891
G1 X131.905 Y133.550 E14.7034
G1 X131.491 Y133.789 E14.7333
G1 X130.331 Y133.948 E14.8062
G1 X130.166 Y134.107 E14.8206
G1 X129.337 Y134.107 E14.8722
G1 X129.006 Y133.948 E14.8951
G1 X128.841 Y133.789 E14.9094
G1 X128.509 Y133.789 E14.9301
G1 X128.095 Y133.550 E14.9599
G0 F4800 E13.9599
G0 X129.337 Y67.006 F10800
G0 F4800 E14.9599
G1 X129.006 Y66.847 E14.9828 F600
G1 X128.344 Y66.847 E15.0242
G1 X127.929 Y66.609 E15.0540
G1 X128.344 Y66.370 E15.0838
G1 X128.462 Y66.370 E15.0912
G0 F4800 E14.0912
G0 X122.502 Y110.182 F10800
G0 X121.101 Y136.490
G0 X123.345 Y137.079
G0 X121.609 Y133.323
G0 F4800 E15.0912
;segType:Loop
G1 X122.008 Y134.683 E15.1796 F600
G1 X123.524 Y136.926 E15.3484
G1 X125.656 Y138.606 E15.5177
G1 X128.206 Y139.562 E15.6875
G1 X130.928 Y139.696 E15.8574
G1 X133.561 Y138.998 E16.0273
G1 X135.921 Y137.494 E16.2018
G1 X136.054 Y137.485 E16.2102
G1 X136.182 Y137.572 E16.2198
G1 X136.250 Y137.804 E16.2349
G1 X136.250 Y139.311 E16.3289
G1 X133.415 Y140.738 E16.5268
G1 X129.956 Y141.270 E16.7451
G1 X126.501 Y140.710 E16.9633
G1 X123.383 Y139.111 E17.1819
G1 X120.904 Y136.622 E17.4009
G1 X119.309 Y133.482 E17.6205
G1 X118.760 Y130.006 E17.8400
G1 X122.259 Y110.163 E19.0966
G1 X122.259 Y89.837 E20.3641
G1 X118.753 Y69.958 E21.6230
G1 X118.817 Y68.776 E21.6968
G1 X119.016 Y67.567 E21.7732
G1 X119.334 Y66.421 E21.8474
G1 X119.447 Y66.257 E21.8598
G1 X119.703 Y66.254 E21.8758
G1 X119.800 Y66.347 E21.8842
G1 X121.430 Y68.471 E22.0511
G1 X123.769 Y70.711 E22.2531
G1 X126.731 Y72.171 E22.4590
G1 X130.000 Y72.674 E22.6653
G1 X133.269 Y72.171 E22.8716
G1 X136.231 Y70.711 E23.0775
G1 X138.842 Y68.211 E23.3029
G1 X137.993 Y65.320 E23.4908
G1 X136.481 Y63.079 E23.6594
G1 X134.353 Y61.399 E23.8285
G1 X131.809 Y60.441 E23.9980
G1 X129.090 Y60.302 E24.1678
G1 X126.459 Y60.993 E24.3374
G1 X124.098 Y62.490 E24.5117
G1 X123.965 Y62.498 E24.5201
G1 X123.837 Y62.411 E24.5297
G1 X123.770 Y62.178 E24.5448
G1 X123.772 Y60.674 E24.6386
G1 X126.606 Y59.256 E24.8363
G1 X130.062 Y58.730 E25.0543
G1 X133.512 Y59.294 E25.2723
G1 X136.626 Y60.895 E25.4906
G1 X139.101 Y63.384 E25.7095
G1 X140.693 Y66.521 E25.9289
G1 X141.239 Y69.983 E26.1475
G1 X140.988 Y71.201 E26.2250
G1 X137.831 Y89.066 E27.3564
G1 X137.709 Y90.480 E27.4449
G1 X137.687 Y108.621 E28.5763
G1 X137.732 Y110.023 E28.6637
G1 X137.779 Y110.407 E28.6878
G1 X141.065 Y129.259 E29.8812
G1 X141.225 Y130.018 E29.9296
G1 X141.244 Y130.298 E29.9471
G1 X141.159 Y131.423 E30.0174
G1 X140.960 Y132.542 E30.0883
G1 X140.667 Y133.577 E30.1554
G1 X140.554 Y133.741 E30.1678
G1 X140.296 Y133.744 E30.1839
G1 X140.200 Y133.653 E30.1922
G1 X138.553 Y131.509 E30.3608
G1 X136.241 Y129.301 E30.5602
G1 X135.975 Y129.151 E30.5792
G1 X133.409 Y127.886 E30.7576
G1 X132.970 Y127.773 E30.7859
G1 X130.112 Y127.334 E30.9662
G1 X129.659 Y127.371 E30.9945
G1 X126.802 Y127.811 E31.1748
G1 X126.388 Y127.994 E31.2031
G1 X123.798 Y129.271 E31.3831
G1 X123.468 Y129.577 E31.4112
G1 X121.158 Y131.788 E31.6106
G1 X121.542 Y133.094 E31.6954
G0 X121.938 Y133.554 F10800
G0 X121.480 Y131.994
G0 X121.506 Y131.168
;segType:Perimeter
G1 X121.740 Y131.998 E31.7492 F359
G1 X122.469 Y134.483 E31.9107
G1 X123.901 Y136.602 E32.0702
G1 X125.912 Y138.187 E32.2299
G1 X128.312 Y139.086 E32.3897
G1 X130.873 Y139.213 E32.5496
G1 X133.351 Y138.555 E32.7095
G1 X135.717 Y137.047 E32.8845
G1 X135.950 Y136.992 E32.8994
G1 X136.190 Y137.016 E32.9144
G1 X136.410 Y137.115 E32.9295
G1 X136.589 Y137.282 E32.9448
G1 X136.706 Y137.501 E32.9602
G1 X136.750 Y137.766 E32.9770
G1 X136.750 Y139.601 E33.0914
G1 X133.575 Y141.199 E33.3131
G1 X129.954 Y141.757 E33.5416
G1 X126.338 Y141.171 E33.7700
G1 X123.077 Y139.498 E33.9986
G1 X120.489 Y136.899 E34.2273
G1 X118.826 Y133.627 E34.4562
G1 X118.253 Y130.002 E34.6851
G1 X121.759 Y110.122 E35.9439
G1 X121.759 Y89.878 E37.2065
G1 X118.251 Y69.986 E38.4661
G1 X118.320 Y68.726 E38.5448
G1 X118.526 Y67.468 E38.6243
G1 X118.864 Y66.250 E38.7031
G1 X118.978 Y66.032 E38.7184
G1 X119.142 Y65.869 E38.7329
G1 X119.345 Y65.765 E38.7471
G1 X119.569 Y65.728 E38.7613
G1 X119.794 Y65.760 E38.7754
G1 X119.999 Y65.860 E38.7897
G1 X120.180 Y66.033 E38.8053
G1 X121.810 Y68.157 E38.9722
G1 X124.067 Y70.318 E39.1671
G1 X126.889 Y71.710 E39.3633
G1 X130.000 Y72.188 E39.5596
G1 X133.111 Y71.710 E39.7559
G1 X135.933 Y70.318 E39.9521
G1 X138.281 Y68.070 E40.1548
G1 X137.533 Y65.520 E40.3206
G1 X136.104 Y63.403 E40.4799
G1 X134.097 Y61.818 E40.6393
G1 X131.701 Y60.917 E40.7989
G1 X129.144 Y60.785 E40.9587
G1 X126.668 Y61.436 E41.1183
G1 X124.301 Y62.936 E41.2931
G1 X124.068 Y62.991 E41.3080
G1 X123.829 Y62.967 E41.3230
G1 X123.608 Y62.867 E41.3381
G1 X123.429 Y62.699 E41.3534
G1 X123.313 Y62.481 E41.3688
G1 X123.270 Y62.216 E41.3855
G1 X123.272 Y60.383 E41.4998
G1 X126.447 Y58.794 E41.7212
G1 X130.065 Y58.243 E41.9495
G1 X133.676 Y58.834 E42.1777
G1 X136.932 Y60.509 E42.4060
G1 X139.516 Y63.107 E42.6345
G1 X141.175 Y66.377 E42.8632
G1 X141.746 Y69.994 E43.0916
G1 X141.480 Y71.288 E43.1740
G1 X138.328 Y89.126 E44.3036
G1 X138.209 Y90.501 E44.3897
G1 X138.187 Y108.615 E45.5193
G1 X138.231 Y109.988 E45.6050
G1 X138.274 Y110.339 E45.6270
G1 X141.557 Y129.172 E46.8193
G1 X141.722 Y129.954 E46.8691
G1 X141.745 Y130.300 E46.8907
G1 X141.656 Y131.481 E46.9646
G1 X141.449 Y132.645 E47.0384
G1 X141.136 Y133.749 E47.1099
G1 X141.027 Y133.959 E47.1246
G1 X140.863 Y134.125 E47.1392
G1 X140.660 Y134.232 E47.1535
G1 X140.434 Y134.272 E47.1678
G1 X140.201 Y134.237 E47.1825
G1 X139.998 Y134.137 E47.1966
G1 X139.820 Y133.967 E47.2120
G1 X138.174 Y131.823 E47.3805
G1 X135.933 Y129.684 E47.5737
G1 X135.734 Y129.572 E47.5879
G1 X133.228 Y128.336 E47.7622
G1 X132.865 Y128.243 E47.7855
G1 X130.094 Y127.817 E47.9604
G1 X129.721 Y127.848 E47.9838
G1 X126.949 Y128.274 E48.1587
G1 X126.606 Y128.426 E48.1820
G1 X124.092 Y129.665 E48.3568
G1 X123.819 Y129.920 E48.3801
G1 X121.772 Y131.879 E48.5568
G1 X121.145 Y132.492
G0 X136.814 Y87.944 F10800
G0 X137.807 Y83.002
;segType:Loop
G1 X137.663 Y84.024 E48.6211 F600
G1 X134.026 Y83.513 E48.8502
G1 X137.471 Y85.393 E49.0950
G1 X137.080 Y88.177 E49.2703
G1 X129.839 Y89.765 E49.7326
G1 X130.295 Y86.516 E49.9372
G1 X132.604 Y86.144 E50.0831
G1 X130.488 Y85.141 E50.2292
G1 X130.810 Y82.853 E50.3732
G1 X131.266 Y79.604 E50.5779
G1 X132.457 Y79.472 E50.6525
G1 X131.349 Y79.014 E50.7273
G1 X131.835 Y75.557 E50.9450
G1 X138.717 Y76.525 E51.3784
G1 X137.840 Y82.765 E51.7714
;segType:Perimeter
G0 X137.485 Y81.708 F10800
G1 X137.235 Y83.479 E51.8829 F359
G1 X131.486 Y82.670 E52.2450
G1 X136.931 Y85.650 E52.6320
G1 X136.631 Y87.783 E52.7664
G1 X130.431 Y89.143 E53.1622
G1 X130.741 Y86.931 E53.3015
G1 X134.213 Y86.372 E53.5208
G1 X131.032 Y84.863 E53.7404
G1 X131.351 Y82.596 E53.8832
G1 X131.710 Y80.038 E54.0443
G1 X134.375 Y79.741 E54.2115
G1 X131.896 Y78.717 E54.3788
G1 X132.263 Y76.103 E54.5434
G1 X138.156 Y76.931 E54.9145
G1 X137.897 Y78.773 E55.0305
G1 X135.432 Y78.426 E55.1857
G1 X137.808 Y79.402 E55.3459
G1 X137.584 Y81.004 E55.4468
G1 X135.022 Y81.289 E55.6076
G1 X137.421 Y81.626 E55.7587
G1 X138.193 Y82.061
;segType:HShell
G0 X137.426 Y84.233 F10800
G1 X136.856 Y84.781 E55.8080 F600
G1 X136.407 Y84.536
G1 X136.813 Y84.147 E55.8431
G1 X136.199 Y84.061
G1 X135.959 Y84.292 E55.8639
G0 X132.345 Y83.034 F10800
G1 X132.453 Y82.930 E55.8732 F600
G1 X132.005 Y82.685
G1 X131.732 Y82.947 E55.8968
G1 X131.195 Y82.787
G1 X131.556 Y82.441 E55.9280
G0 F4800 E54.9280
G0 X130.030 Y86.607 F10800
G0 F4800 E55.9280
G1 X122.509 Y93.828 E56.5782 F600
G1 X122.509 Y94.503
G1 X129.920 Y87.388 E57.2189
G1 X129.810 Y88.168
G1 X122.509 Y95.178 E57.8502
G1 X122.509 Y95.854
G1 X129.701 Y88.949 E58.4719
G1 X129.591 Y89.729
G1 X122.509 Y96.529 E59.0842
G1 X122.509 Y97.204
G1 X130.049 Y89.966 E59.7360
G1 X130.960 Y89.766
G1 X122.509 Y97.880 E60.4667
G1 X122.509 Y98.555
G1 X131.872 Y89.565 E61.2762
G0 X125.360 Y128.231 F10800
G1 X138.443 Y115.671 E62.4072 F600
G1 X138.544 Y116.249
G1 X126.745 Y127.576 E63.4272
G1 X127.583 Y127.447
G1 X138.645 Y116.828 E64.3834
G1 X138.746 Y117.406
G1 X128.421 Y127.318 E65.2760
G1 X129.259 Y127.189
G1 X138.846 Y117.985 E66.1049
G1 X138.947 Y118.563
G1 X130.058 Y127.097 E66.8734
G1 X130.678 Y127.178
G1 X139.048 Y119.142 E67.5970
G1 X139.149 Y119.720
G1 X131.284 Y127.271 E68.2769
G1 X131.890 Y127.364
G1 X139.250 Y120.299 E68.9132
G1 X139.351 Y120.877
G1 X132.497 Y127.457 E69.5057
G1 X133.096 Y127.557
G1 X139.451 Y121.456 E70.0551
G1 X139.552 Y122.034
G1 X133.626 Y127.723 E70.5674
G1 X134.091 Y127.952
G1 X139.653 Y122.612 E71.0483
G1 X139.754 Y123.191
G1 X134.556 Y128.182 E71.4977
G1 X135.020 Y128.411
G1 X139.855 Y123.769 E71.9156
G1 X139.956 Y124.348
G1 X135.485 Y128.640 E72.3021
G1 X135.950 Y128.869
G1 X140.056 Y124.926 E72.6571
G1 X140.157 Y125.505
G1 X136.399 Y129.113 E72.9820
G1 X136.752 Y129.450
G1 X140.258 Y126.083 E73.2852
G1 X140.359 Y126.662
G1 X137.104 Y129.787 E73.5666
G1 X137.457 Y130.123
G1 X140.460 Y127.240 E73.8262
G1 X140.561 Y127.819
G1 X137.809 Y130.460 E74.0640
G1 X138.162 Y130.797
G1 X140.662 Y128.397 E74.2801
G1 X140.762 Y128.976
G1 X138.515 Y131.134 E74.4744
G1 X138.848 Y131.489
G1 X140.871 Y129.547 E74.6493
G1 X140.981 Y130.116
G1 X139.147 Y131.877 E74.8078
G1 X139.445 Y132.266
G1 X140.954 Y130.817 E74.9383
G1 X140.881 Y131.563
G1 X139.744 Y132.655 E75.0366
G1 X140.042 Y133.043
G1 X140.735 Y132.378 E75.0965
G1 X140.441 Y133.336
G1 X140.341 Y133.432 E75.1052
G0 X135.854 Y129.363 F10800
G0 X132.917 Y128.010
G0 X129.690 Y127.611
G0 X126.498 Y128.211
G0 X123.645 Y129.749
G0 X121.479 Y131.869
G0 X122.242 Y134.581
G0 X123.716 Y136.761
G0 X125.786 Y138.393
G0 X128.260 Y139.320
G0 X130.900 Y139.450
G0 X135.592 Y137.991
G1 X132.902 Y140.574 E75.3377 F600
G1 X134.049 Y140.147
G1 X136.000 Y138.275 E75.5063
G1 X136.000 Y138.950
G1 X135.528 Y139.404 E75.5471
G0 X133.589 Y139.239 F10800
G1 X132.064 Y140.703 E75.6789 F600
G1 X131.227 Y140.832
G1 X132.617 Y139.497 E75.7991
G1 X131.645 Y139.755
G1 X130.389 Y140.961 E75.9076
G1 X129.665 Y140.980
G1 X130.761 Y139.928 E76.0024
G1 X130.092 Y139.895
G1 X129.063 Y140.882 E76.0913
G1 X128.462 Y140.785
G1 X129.423 Y139.862 E76.1744
G1 X128.754 Y139.829
G1 X127.860 Y140.687 E76.2517
G1 X127.258 Y140.590
G1 X128.101 Y139.780 E76.3245
G1 X127.595 Y139.591
G1 X126.656 Y140.492 E76.4057
G1 X126.181 Y140.274
G1 X127.090 Y139.401 E76.4843
G1 X126.584 Y139.211
G1 X125.722 Y140.039 E76.5588
G1 X125.264 Y139.803
G1 X126.078 Y139.022 E76.6292
G1 X125.572 Y138.832
G1 X124.805 Y139.568 E76.6955
G1 X124.347 Y139.333
G1 X125.175 Y138.538 E76.7671
G1 X124.789 Y138.233
G1 X123.888 Y139.098 E76.8450
G1 X123.456 Y138.837
G1 X124.403 Y137.929 E76.9268
G1 X124.016 Y137.624
G1 X123.113 Y138.492 E77.0049
G1 X122.769 Y138.147
G1 X123.630 Y137.320 E77.0794
G1 X123.270 Y136.991
G1 X122.425 Y137.802 E77.1524
G1 X122.081 Y137.456
G1 X122.993 Y136.581 E77.2312
G1 X122.716 Y136.172
G1 X121.737 Y137.111 E77.3158
G1 X121.394 Y136.766
G1 X122.439 Y135.762 E77.4062
G1 X122.163 Y135.352
G1 X121.070 Y136.401 E77.5007
G1 X120.839 Y135.947
G1 X121.886 Y134.943 E77.5912
G1 X121.684 Y134.462
G1 X120.609 Y135.494 E77.6841
G1 X120.378 Y135.040
G1 X121.529 Y133.935 E77.7835
G1 X121.374 Y133.408
G1 X120.148 Y134.586 E77.8896
G1 X119.917 Y134.132
G1 X121.220 Y132.881 E78.0022
G1 X121.065 Y132.355
G1 X119.686 Y133.678 E78.1214
G1 X119.512 Y133.170
G1 X120.910 Y131.828 E78.2423
G0 X123.914 Y128.944 F10800
G1 X138.342 Y115.092 E79.4896 F600
G1 X138.241 Y114.514
G1 X119.420 Y132.584 E81.1167
G1 X119.327 Y131.997
G1 X138.141 Y113.935 E82.7432
G1 X138.040 Y113.357
G1 X119.234 Y131.411 E84.3689
G1 X119.142 Y130.824
G1 X137.939 Y112.778 E85.9939
G1 X137.838 Y112.200
G1 X119.049 Y130.238 E87.6182
G1 X119.100 Y129.514
G1 X137.737 Y111.621 E89.2294
G1 X137.636 Y111.043
G1 X119.243 Y128.701 E90.8195
G1 X119.387 Y127.888
G1 X137.536 Y110.464 E92.3885
G1 X137.476 Y109.846
G1 X119.530 Y127.075 E93.9399
G1 X119.673 Y126.262
G1 X137.455 Y109.191 E95.4772
G1 X137.437 Y108.533
G1 X119.817 Y125.449 E97.0005
G1 X119.960 Y124.637
G1 X137.438 Y107.857 E98.5115
G1 X137.439 Y107.181
G1 X120.103 Y123.824 E100.0102
G1 X120.247 Y123.011
G1 X137.440 Y106.505 E101.4965
G1 X137.441 Y105.829
G1 X120.390 Y122.198 E102.9705
G1 X120.533 Y121.385
G1 X137.441 Y105.153 E104.4322
G1 X137.442 Y104.477
G1 X120.677 Y120.572 E105.8816
G1 X120.820 Y119.759
G1 X137.443 Y103.801 E107.3187
G1 X137.444 Y103.125
G1 X120.963 Y118.946 E108.7434
G1 X121.107 Y118.133
G1 X137.445 Y102.448 E110.1558
G1 X137.445 Y101.772
G1 X121.250 Y117.320 E111.5559
G1 X121.393 Y116.508
G1 X137.446 Y101.096 E112.9436
G1 X137.447 Y100.420
G1 X121.537 Y115.695 E114.3191
G1 X121.680 Y114.882
G1 X137.448 Y99.744 E115.6822
G1 X137.449 Y99.068
G1 X121.823 Y114.069 E117.0330
G1 X121.967 Y113.256
G1 X137.449 Y98.392 E118.3714
G1 X137.450 Y97.716
G1 X122.110 Y112.443 E119.6976
G1 X122.254 Y111.630
G1 X137.451 Y97.040 E121.0114
G1 X137.452 Y96.364
G1 X122.397 Y110.817 E122.3129
G1 X122.509 Y110.035
G1 X137.452 Y95.688 E123.6048
G1 X137.453 Y95.012
G1 X122.509 Y109.359 E124.8967
G1 X122.509 Y108.684
G1 X137.454 Y94.336 E126.1887
G1 X137.455 Y93.660
G1 X122.509 Y108.009 E127.4808
G1 X122.509 Y107.333
G1 X137.456 Y92.984 E128.7730
G1 X137.456 Y92.308
G1 X122.509 Y106.658 E130.0653
G1 X122.509 Y105.983
G1 X137.457 Y91.632 E131.3576
G1 X137.458 Y90.956
G1 X122.509 Y105.308 E132.6499
G1 X122.509 Y104.632
G1 X137.477 Y90.263 E133.9439
G1 X137.540 Y89.526
G1 X122.509 Y103.957 E135.2434
G1 X122.509 Y103.282
G1 X137.631 Y88.764 E136.5507
G1 X137.775 Y87.951
G1 X122.509 Y102.606 E137.8705
G1 X122.509 Y101.931
G1 X136.431 Y88.565 E139.0741
G1 X135.519 Y88.765
G1 X122.509 Y101.256 E140.1988
G1 X122.509 Y100.581
G1 X134.608 Y88.965 E141.2448
G1 X133.696 Y89.165
G1 X122.509 Y99.905 E142.2119
G1 X122.509 Y99.230
G1 X132.784 Y89.365 E143.1002
G0 X130.263 Y89.319 F10800
G0 X130.562 Y86.765
G0 X131.488 Y85.883
G1 X131.240 Y86.121 E143.1216 F600
G1 X130.395 Y86.257
G1 X131.017 Y85.659 E143.1754
G1 X130.546 Y85.436
G1 X122.509 Y93.153 E143.8703
G1 X122.509 Y92.477
G1 X130.250 Y85.046 E144.5395
G1 X130.359 Y84.265
G1 X122.509 Y91.802 E145.2182
G1 X122.509 Y91.127
G1 X130.469 Y83.484 E145.9064
G1 X130.579 Y82.704
G1 X122.509 Y90.451 E146.6040
G1 X122.503 Y89.782
G1 X130.688 Y81.923 E147.3117
G1 X130.798 Y81.143
G1 X122.401 Y89.205 E148.0376
G1 X122.299 Y88.627
G1 X130.908 Y80.362 E148.7818
G1 X131.017 Y79.582
G1 X122.197 Y88.050 E149.5443
G1 X122.095 Y87.472
G1 X131.127 Y78.801 E150.3252
G1 X131.237 Y78.020
G1 X121.993 Y86.894 E151.1243
G1 X121.891 Y86.317
G1 X131.347 Y77.240 E151.9417
G1 X131.456 Y76.459
G1 X121.790 Y85.739 E152.7773
G1 X121.688 Y85.162
G1 X131.566 Y75.678 E153.6313
G0 X131.340 Y79.272 F10800
G1 X131.243 Y79.365 E153.6397 F600
G0 X132.113 Y75.912 F10800
G0 X135.255 Y71.462
G1 X121.586 Y84.584 E154.8214 F600
G1 X121.484 Y84.007
G1 X133.808 Y72.176 E155.8868
G1 X132.777 Y72.490
G1 X121.382 Y83.429 E156.8718
G1 X121.280 Y82.852
G1 X131.939 Y72.619 E157.7932
G1 X131.101 Y72.748
G1 X121.179 Y82.274 E158.6511
G1 X121.077 Y81.697
G1 X130.264 Y72.877 E159.4453
G1 X129.585 Y72.854
G1 X120.975 Y81.119 E160.1896
G1 X120.873 Y80.542
G1 X128.978 Y72.760 E160.8903
G1 X128.372 Y72.667
G1 X120.771 Y79.964 E161.5474
G1 X120.669 Y79.387
G1 X127.766 Y72.574 E162.1609
G1 X127.160 Y72.481
G1 X120.567 Y78.809 E162.7308
G1 X120.466 Y78.232
G1 X126.576 Y72.365 E163.2591
G1 X126.112 Y72.136
G1 X120.364 Y77.654 E163.7560
G1 X120.262 Y77.077
G1 X125.647 Y71.907 E164.2216
G1 X125.183 Y71.678
G1 X120.160 Y76.499 E164.6558
G1 X120.058 Y75.922
G1 X124.718 Y71.448 E165.0586
G1 X124.253 Y71.219
G1 X119.956 Y75.344 E165.4301
G1 X119.855 Y74.767
G1 X123.789 Y70.990 E165.7702
G1 X123.396 Y70.692
G1 X119.753 Y74.189 E166.0851
G1 X119.651 Y73.612
G1 X123.044 Y70.355 E166.3784
G1 X122.691 Y70.018
G1 X119.549 Y73.034 E166.6501
G1 X119.447 Y72.457
G1 X122.339 Y69.680 E166.9001
G1 X121.987 Y69.343
G1 X119.345 Y71.879 E167.1284
G1 X119.244 Y71.302
G1 X121.635 Y69.006 E167.3352
G1 X121.283 Y68.669
G1 X119.142 Y70.724 E167.5202
G1 X119.040 Y70.147
G1 X120.978 Y68.286 E167.6878
G1 X120.679 Y67.897
G1 X119.029 Y69.482 E167.8304
G1 X119.072 Y68.765
G1 X120.381 Y67.509 E167.9435
G1 X120.083 Y67.120
G1 X119.204 Y67.963 E168.0195
G1 X119.433 Y67.068
G1 X119.784 Y66.731 E168.0498
G0 X123.921 Y70.511 F10800
G0 X126.811 Y71.936
G0 X130.000 Y72.427
G0 X133.189 Y71.936
G0 X136.079 Y70.511
G0 X138.521 Y68.131
G0 X137.759 Y65.422
G0 X136.289 Y63.244
G0 X134.223 Y61.612
G0 X131.754 Y60.683
G0 X129.117 Y60.548
G0 X125.285 Y61.450
G1 X127.451 Y59.370 E168.2371 F600
G1 X126.563 Y59.548
G1 X124.020 Y61.989 E168.4569
G1 X124.021 Y61.313
G1 X125.093 Y60.283 E168.5497
G0 X126.823 Y60.649 F10800
G1 X128.287 Y59.243 E168.6763 F600
G1 X129.123 Y59.116
G1 X127.791 Y60.394 E168.7914
G0 X131.754 Y60.683 F10800
G0 X134.223 Y61.612
G0 X136.289 Y63.244
G0 X140.977 Y70.020
G1 X134.999 Y75.759 E169.3082 F600
G1 X134.385 Y75.673
G1 X140.897 Y69.421 E169.8712
G1 X140.805 Y68.835
G1 X133.771 Y75.587 E170.4792
G1 X133.158 Y75.501
G1 X140.712 Y68.248 E171.1323
G1 X140.620 Y67.662
G1 X132.544 Y75.414 E171.8304
G1 X131.931 Y75.328
G1 X140.527 Y67.075 E172.5736
G1 X140.410 Y66.512
G1 X139.000 Y67.866 E172.6955
G1 X138.845 Y67.339
G1 X140.180 Y66.058 E172.8108
G1 X139.949 Y65.604
G1 X138.691 Y66.812 E172.9196
G1 X138.536 Y66.286
G1 X139.719 Y65.150 E173.0219
G1 X139.488 Y64.696
G1 X138.382 Y65.759 E173.1175
G1 X138.227 Y65.232
G1 X139.258 Y64.242 E173.2067
G1 X139.027 Y63.788
G1 X137.953 Y64.819 E173.2995
G1 X137.677 Y64.410
G1 X138.750 Y63.379 E173.3923
G1 X138.406 Y63.034
G1 X137.400 Y64.000 E173.4793
G1 X137.124 Y63.590
G1 X138.063 Y62.688 E173.5605
G1 X137.719 Y62.343
G1 X136.847 Y63.180 E173.6359
G1 X136.531 Y62.808
G1 X137.376 Y61.997 E173.7089
G1 X137.032 Y61.652
G1 X136.145 Y62.503 E173.7856
G1 X135.759 Y62.199
G1 X136.689 Y61.307 E173.8659
G1 X136.303 Y61.002
G1 X135.373 Y61.894 E173.9463
G1 X134.988 Y61.589
G1 X135.845 Y60.766 E174.0204
G1 X135.387 Y60.531
G1 X134.602 Y61.284 E174.0882
G1 X134.134 Y61.058
G1 X134.929 Y60.295 E174.1570
G1 X134.471 Y60.059
G1 X133.628 Y60.868 E174.2298
G1 X133.123 Y60.678
G1 X134.013 Y59.824 E174.3067
G1 X133.555 Y59.588
G1 X132.618 Y60.488 E174.3877
G1 X132.112 Y60.298
G1 X132.993 Y59.453 E174.4639
G1 X132.392 Y59.354
G1 X131.525 Y60.187 E174.5388
G1 X130.857 Y60.152
G1 X131.791 Y59.256 E174.6195
G1 X131.190 Y59.158
G1 X130.189 Y60.118 E174.7060
G1 X129.522 Y60.084
G1 X130.589 Y59.059 E174.7983
G1 X129.959 Y58.988
G1 X128.760 Y60.140 E174.9020
G0 X131.754 Y60.683 F10800
G0 X134.223 Y61.612
G0 X136.289 Y63.244
G0 X137.759 Y65.422
G0 X140.803 Y70.862
G1 X135.612 Y75.846 E175.3507 F600
G1 X136.226 Y75.932
G1 X140.649 Y71.685 E175.7331
G1 X140.505 Y72.499
G1 X136.839 Y76.018 E176.0501
G1 X137.453 Y76.104
G1 X140.362 Y73.312 E176.3015
G1 X140.218 Y74.125
G1 X138.066 Y76.191 E176.4875
G1 X138.680 Y76.277
G1 X140.074 Y74.938 E176.6081
G1 X139.930 Y75.752
G1 X138.945 Y76.697 E176.6932
G1 X138.836 Y77.478
G1 X139.787 Y76.565 E176.7755
G1 X139.643 Y77.378
G1 X138.726 Y78.259 E176.8547
G1 X138.616 Y79.039
G1 X139.499 Y78.191 E176.9311
G1 X139.356 Y79.005
G1 X138.506 Y79.820 E177.0045
G1 X138.397 Y80.601
G1 X139.212 Y79.818 E177.0750
G1 X139.068 Y80.631
G1 X138.287 Y81.381 E177.1425
G1 X138.177 Y82.162
G1 X138.924 Y81.444 E177.2071
G1 X138.781 Y82.258
G1 X138.068 Y82.942 E177.2688
G1 X137.958 Y83.723
G1 X138.637 Y83.071 E177.3275
G1 X138.493 Y83.884
G1 X137.304 Y85.026 E177.4303
G1 X137.739 Y85.284
G1 X138.350 Y84.697 E177.4831
G1 X138.206 Y85.511
G1 X137.629 Y86.064 E177.5329
G1 X137.519 Y86.845
G1 X138.062 Y86.324 E177.5799
G1 X137.918 Y87.137
G1 X137.409 Y87.626 E177.6239
; ------------------------------------
; Layer #1
; ------------------------------------
G21 ; mm
G90 ; abs
G92 E0 ; reset extr
M106 S0
G0 F4800 E-1.0000
G0 F300 Z0.600
G0 X122.224 Y129.609 F10800
G0 X121.139 Y132.607
G0 F4800 E0.0000
;segType:HShell
G1 X119.117 Y130.666 E0.1748 F4800
G1 X119.031 Y129.908
G1 X120.897 Y131.700 E0.3362
G1 X121.249 Y131.363
G1 X119.132 Y129.330 E0.5192
G1 X119.234 Y128.753
G1 X121.602 Y131.025 E0.7239
;segType:Perimeter
G0 X121.506 Y131.168 F10800
G1 X121.740 Y131.998 E0.7776 F2879
G1 X122.469 Y134.483 E0.9391
G1 X123.901 Y136.602 E1.0986
G1 X125.912 Y138.187 E1.2583
G1 X128.312 Y139.086 E1.4181
G1 X130.873 Y139.213 E1.5780
G1 X133.351 Y138.555 E1.7379
G1 X135.717 Y137.047 E1.9129
G1 X135.950 Y136.992 E1.9278
G1 X136.190 Y137.016 E1.9428
G1 X136.410 Y137.115 E1.9579
G1 X136.589 Y137.282 E1.9732
G1 X136.706 Y137.501 E1.9886
G1 X136.750 Y137.766 E2.0054
G1 X136.750 Y139.601 E2.1199
G1 X133.575 Y141.199 E2.3415
G1 X129.954 Y141.757 E2.5700
G1 X126.338 Y141.171 E2.7985
G1 X123.077 Y139.498 E3.0270
G1 X120.489 Y136.899 E3.2557
G1 X118.826 Y133.627 E3.4847
G1 X118.253 Y130.002 E3.7135
G1 X121.759 Y110.122 E4.9724
G1 X121.759 Y89.878 E6.2349
G1 X118.251 Y69.986 E7.4945
G1 X118.320 Y68.726 E7.5732
G1 X118.526 Y67.468 E7.6527
G1 X118.864 Y66.250 E7.7315
G1 X118.978 Y66.032 E7.7469
G1 X119.142 Y65.869 E7.7613
G1 X119.345 Y65.765 E7.7756
G1 X119.569 Y65.728 E7.7897
G1 X119.794 Y65.760 E7.8039
G1 X119.999 Y65.860 E7.8181
G1 X120.180 Y66.033 E7.8337
G1 X121.810 Y68.157 E8.0007
G1 X124.067 Y70.318 E8.1955
G1 X126.889 Y71.710 E8.3917
G1 X130.000 Y72.188 E8.5880
G1 X133.111 Y71.710 E8.7844
G1 X135.933 Y70.318 E8.9806
G1 X138.281 Y68.070 E9.1832
G1 X137.533 Y65.520 E9.3490
G1 X136.104 Y63.403 E9.5083
G1 X134.097 Y61.818 E9.6678
G1 X131.701 Y60.917 E9.8274
G1 X129.144 Y60.785 E9.9871
G1 X126.668 Y61.436 E10.1467
G1 X124.301 Y62.936 E10.3215
G1 X124.068 Y62.991 E10.3364
G1 X123.829 Y62.967 E10.3514
G1 X123.608 Y62.867 E10.3665
G1 X123.429 Y62.699 E10.3818
G1 X123.313 Y62.481 E10.3972
G1 X123.270 Y62.216 E10.4140
G1 X123.272 Y60.383 E10.5283
G1 X126.447 Y58.794 E10.7497
G1 X130.065 Y58.243 E10.9779
G1 X133.676 Y58.834 E11.2061
G1 X136.932 Y60.509 E11.4345
G1 X139.516 Y63.107 E11.6630
G1 X141.175 Y66.377 E11.8916
G1 X141.746 Y69.994 E12.1200
G1 X141.206 Y72.618 E12.2871
G1 X138.404 Y88.475 E13.2913
G1 X138.168 Y91.203 E13.4620
G1 X138.149 Y107.306 E14.4663
G1 X138.235 Y110.036 E14.6366
G1 X138.320 Y110.721 E14.6797
G1 X141.429 Y128.561 E15.8090
G1 X141.541 Y129.179 E15.8481
G1 X141.718 Y129.940 E15.8969
G1 X141.745 Y130.282 E15.9183
G1 X141.662 Y131.422 E15.9895
G1 X141.466 Y132.555 E16.0613
G1 X141.136 Y133.750 E16.1386
G1 X141.021 Y133.968 E16.1540
G1 X140.857 Y134.132 E16.1684
G1 X140.646 Y134.236 E16.1831
G1 X140.417 Y134.270 E16.1975
G1 X140.204 Y134.239 E16.2110
G1 X140.011 Y134.145 E16.2244
G1 X139.717 Y133.833 E16.2511
G1 X138.195 Y131.849 E16.4071
G1 X138.095 Y131.741 E16.4162
G1 X135.968 Y129.710 E16.5996
G1 X135.567 Y129.477 E16.6286
G1 X133.334 Y128.376 E16.7838
G1 X132.647 Y128.200 E16.8280
G1 X130.179 Y127.820 E16.9838
G1 X129.472 Y127.879 E17.0280
G1 X127.003 Y128.259 E17.1838
G1 X126.355 Y128.545 E17.2280
G1 X124.116 Y129.650 E17.3836
G1 X123.597 Y130.132 E17.4278
G1 X121.772 Y131.879 E17.5854
G1 X121.145 Y132.492
;segType:Loop
G0 X121.609 Y133.323 F10800
G1 X122.008 Y134.683 E17.6737 F4800
G1 X123.524 Y136.926 E17.8425
G1 X125.656 Y138.606 E18.0119
G1 X128.206 Y139.562 E18.1816
G1 X130.928 Y139.696 E18.3516
G1 X133.561 Y138.998 E18.5215
G1 X135.921 Y137.494 E18.6960
G1 X136.054 Y137.485 E18.7044
G1 X136.182 Y137.572 E18.7140
G1 X136.250 Y137.804 E18.7291
G1 X136.250 Y139.311 E18.8231
G1 X133.415 Y140.738 E19.0210
G1 X129.956 Y141.270 E19.2392
G1 X126.501 Y140.710 E19.4575
G1 X123.383 Y139.111 E19.6760
G1 X120.904 Y136.622 E19.8951
G1 X119.309 Y133.482 E20.1147
G1 X118.760 Y130.006 E20.3342
G1 X122.259 Y110.163 E21.5908
G1 X122.259 Y89.837 E22.8583
G1 X118.753 Y69.958 E24.1172
G1 X118.817 Y68.776 E24.1910
G1 X119.016 Y67.567 E24.2674
G1 X119.334 Y66.421 E24.3416
G1 X119.447 Y66.257 E24.3540
G1 X119.703 Y66.254 E24.3700
G1 X119.800 Y66.347 E24.3784
G1 X121.430 Y68.471 E24.5453
G1 X123.769 Y70.711 E24.7473
G1 X126.731 Y72.171 E24.9532
G1 X130.000 Y72.674 E25.1595
G1 X133.269 Y72.171 E25.3657
G1 X136.231 Y70.711 E25.5717
G1 X138.842 Y68.211 E25.7971
G1 X137.993 Y65.320 E25.9850
G1 X136.481 Y63.079 E26.1536
G1 X134.353 Y61.399 E26.3227
G1 X131.809 Y60.441 E26.4922
G1 X129.090 Y60.302 E26.6620
G1 X126.459 Y60.993 E26.8316
G1 X124.098 Y62.490 E27.0059
G1 X123.965 Y62.498 E27.0143
G1 X123.837 Y62.411 E27.0239
G1 X123.770 Y62.178 E27.0390
G1 X123.772 Y60.674 E27.1328
G1 X126.606 Y59.256 E27.3304
G1 X130.062 Y58.730 E27.5485
G1 X133.512 Y59.294 E27.7665
G1 X136.626 Y60.895 E27.9848
G1 X139.101 Y63.384 E28.2037
G1 X140.693 Y66.521 E28.4231
G1 X141.239 Y69.983 E28.6417
G1 X140.714 Y72.531 E28.8039
G1 X137.907 Y88.415 E29.8098
G1 X137.668 Y91.183 E29.9830
G1 X137.649 Y107.312 E30.9889
G1 X137.736 Y110.072 E31.1611
G1 X137.825 Y110.789 E31.2062
G1 X140.936 Y128.641 E32.3363
G1 X141.051 Y129.272 E32.3763
G1 X141.222 Y130.010 E32.4235
G1 X141.244 Y130.284 E32.4406
G1 X141.165 Y131.366 E32.5083
G1 X140.977 Y132.454 E32.5772
G1 X140.666 Y133.579 E32.6499
G1 X140.554 Y133.741 E32.6622
G1 X140.319 Y133.757 E32.6769
G1 X140.105 Y133.529 E32.6964
G1 X138.583 Y131.546 E32.8523
G1 X138.458 Y131.411 E32.8638
G1 X136.278 Y129.329 E33.0518
G1 X135.810 Y129.058 E33.0855
G1 X133.515 Y127.926 E33.2451
G1 X132.752 Y127.730 E33.2943
G1 X130.197 Y127.337 E33.4554
G1 X129.411 Y127.402 E33.5047
G1 X126.856 Y127.795 E33.6658
G1 X126.136 Y128.114 E33.7150
G1 X123.821 Y129.255 E33.8759
G1 X123.247 Y129.790 E33.9248
G1 X121.158 Y131.788 E34.1051
G1 X121.542 Y133.094 E34.1899
G0 X122.120 Y134.174 F10800
G0 X121.479 Y131.869
G0 X136.814 Y87.944
G0 X137.807 Y83.002
G1 X137.663 Y84.024 E34.2543 F4800
G1 X134.026 Y83.513 E34.4834
G1 X137.471 Y85.393 E34.7282
G1 X137.080 Y88.177 E34.9034
G1 X129.839 Y89.765 E35.3658
G1 X130.295 Y86.516 E35.5704
G1 X132.604 Y86.144 E35.7163
G1 X130.488 Y85.141 E35.8623
G1 X130.810 Y82.853 E36.0064
G1 X131.266 Y79.604 E36.2110
G1 X132.457 Y79.472 E36.2857
G1 X131.349 Y79.014 E36.3604
G1 X131.835 Y75.557 E36.5781
G1 X138.717 Y76.525 E37.0115
G1 X137.840 Y82.765 E37.4045
;segType:Perimeter
G0 X137.485 Y81.708 F10800
G1 X137.235 Y83.479 E37.5160 F2879
G1 X131.486 Y82.670 E37.8781
G1 X136.931 Y85.650 E38.2652
G1 X136.631 Y87.783 E38.3995
G1 X130.431 Y89.143 E38.7953
G1 X130.741 Y86.931 E38.9346
G1 X134.213 Y86.372 E39.1540
G1 X131.032 Y84.863 E39.3735
G1 X131.351 Y82.596 E39.5163
G1 X131.710 Y80.038 E39.6774
G1 X134.375 Y79.741 E39.8446
G1 X131.896 Y78.717 E40.0119
G1 X132.263 Y76.103 E40.1766
G1 X138.156 Y76.931 E40.5477
G1 X137.897 Y78.773 E40.6637
G1 X135.432 Y78.426 E40.8189
G1 X137.808 Y79.402 E40.9791
G1 X137.584 Y81.004 E41.0800
G1 X135.022 Y81.289 E41.2407
G1 X137.421 Y81.626 E41.3918
G1 X138.193 Y82.061
G0 F4800 E40.3918
G0 X137.496 Y83.412 F10800
G0 X135.951 Y84.026
G0 F4800 E41.3918
;segType:HShell
G1 X136.582 Y84.632 E41.4464 F4800
G0 X133.539 Y88.632 F10800
G0 X130.263 Y89.319
G0 X130.562 Y86.765
G0 X131.619 Y85.945
G1 X131.722 Y86.043 E41.4552 F4800
G1 X131.119 Y86.140
G1 X130.229 Y85.286 E41.5322
G0 X123.769 Y70.980 F10800
G1 X131.221 Y78.134 E42.1764 F4800
G1 X131.304 Y77.539
G1 X125.216 Y71.694 E42.7027
G0 X126.658 Y72.403 F10800
G1 X131.388 Y76.944 E43.1116 F4800
G1 X131.472 Y76.349
G1 X127.496 Y72.532 E43.4553
G1 X128.334 Y72.661
G1 X131.555 Y75.754 E43.7338
G1 X131.795 Y75.309
G1 X129.171 Y72.790 E43.9607
G1 X130.006 Y72.917
G1 X132.619 Y75.425 E44.1866
G1 X133.443 Y75.541
G1 X130.613 Y72.823 E44.4313
G1 X131.219 Y72.730
G1 X134.267 Y75.657 E44.6948
G1 X135.091 Y75.772
G1 X131.825 Y72.637 E44.9772
G1 X132.431 Y72.543
G1 X135.915 Y75.888 E45.2784
G1 X136.739 Y76.004
G1 X133.038 Y72.450 E45.5984
G1 X133.575 Y72.291
G1 X137.563 Y76.120 E45.9432
G1 X138.388 Y76.236
G1 X134.039 Y72.061 E46.3191
G1 X134.504 Y71.832
G1 X139.702 Y76.823 E46.7685
G1 X139.804 Y76.245
G1 X134.969 Y71.603 E47.1865
G1 X135.433 Y71.374
G1 X139.906 Y75.668 E47.5732
G1 X140.008 Y75.091
G1 X135.898 Y71.145 E47.9286
G1 X136.363 Y70.915
G1 X140.110 Y74.513 E48.2526
G1 X140.212 Y73.936
G1 X136.719 Y70.582 E48.5546
G1 X137.071 Y70.245
G1 X140.314 Y73.359 E48.8350
G1 X140.416 Y72.781
G1 X137.423 Y69.908 E49.0937
G1 X137.776 Y69.571
G1 X140.525 Y72.211 E49.3315
G1 X140.642 Y71.647
G1 X138.128 Y69.234 E49.5488
G1 X138.480 Y68.896
G1 X140.758 Y71.083 E49.7457
G1 X140.874 Y70.519
G1 X138.832 Y68.559 E49.9222
G1 X139.073 Y68.115
G1 X140.980 Y69.946 E50.0871
G1 X140.855 Y69.150
G1 X138.797 Y67.175 E50.2649
G1 X138.522 Y66.235
G1 X140.729 Y68.355 E50.4558
G1 X140.604 Y67.559
G1 X138.246 Y65.295 E50.6596
G0 X137.032 Y63.455 F10800
G1 X140.478 Y66.763 E50.9575 F4800
G0 X139.925 Y65.557 F10800
G1 X133.885 Y59.758 E51.4797 F4800
G0 X135.400 Y60.538 F10800
G1 X139.257 Y64.240 E51.8131 F4800
G0 X135.558 Y62.040 F10800
G1 X132.837 Y59.427 E52.0484 F4800
G1 X131.989 Y59.288
G1 X133.639 Y60.872 E52.1910
G1 X132.482 Y60.437
G1 X131.141 Y59.150 E52.3069
G1 X130.293 Y59.011
G1 X131.517 Y60.186 E52.4128
G1 X130.774 Y60.148
G1 X129.620 Y59.040 E52.5125
G1 X129.013 Y59.132
G1 X130.031 Y60.110 E52.6006
G1 X129.288 Y60.072
G1 X128.406 Y59.225 E52.6768
G1 X127.799 Y59.317
G1 X128.678 Y60.161 E52.7528
G1 X128.126 Y60.306
G1 X127.192 Y59.410 E52.8336
G1 X126.608 Y59.525
G1 X127.573 Y60.452 E52.9170
G1 X127.021 Y60.597
G1 X126.146 Y59.757 E52.9926
G1 X125.684 Y59.988
G1 X126.469 Y60.742 E53.0605
G1 X126.019 Y60.985
G1 X125.221 Y60.219 E53.1295
G1 X124.759 Y60.451
G1 X125.595 Y61.253 E53.2017
G1 X125.171 Y61.522
G1 X124.297 Y60.682 E53.2774
G1 X124.021 Y61.093
G1 X124.748 Y61.790 E53.3402
G1 X124.324 Y62.059
G1 X124.020 Y61.767 E53.3665
G0 X129.117 Y60.548 F10800
G0 X131.754 Y60.683
G0 X134.223 Y61.612
G0 X136.289 Y63.244
G0 X137.759 Y65.422
G0 X138.521 Y68.131
G0 X136.079 Y70.511
G0 X133.189 Y71.936
G0 X130.000 Y72.427
G0 X126.811 Y71.936
G0 X123.921 Y70.511
G0 X121.019 Y68.340
G1 X119.478 Y66.860 E53.4997 F4800
G1 X119.326 Y67.390
G1 X131.137 Y78.729 E54.5208
G1 X131.111 Y79.379
G1 X119.206 Y67.950 E55.5500
G1 X119.110 Y68.533
G1 X130.970 Y79.919 E56.5752
G1 X130.886 Y80.514
G1 X119.048 Y69.148 E57.5987
G1 X119.012 Y69.790
G1 X130.803 Y81.109 E58.6180
G1 X130.719 Y81.704
G1 X119.113 Y70.562 E59.6213
G1 X119.256 Y71.375
G1 X130.636 Y82.299 E60.6050
G1 X130.552 Y82.894
G1 X119.400 Y72.188 E61.5692
G1 X119.543 Y73.001
G1 X130.468 Y83.489 E62.5137
G1 X130.385 Y84.084
G1 X119.686 Y73.814 E63.4385
G1 X119.830 Y74.626
G1 X130.301 Y84.679 E64.3438
G1 X130.218 Y85.274
G1 X119.973 Y75.439 E65.2294
G1 X120.117 Y76.252
G1 X130.517 Y86.237 E66.1285
G1 X130.050 Y86.464
G1 X120.260 Y77.065 E66.9749
G1 X120.403 Y77.878
G1 X129.966 Y87.059 E67.8016
G1 X129.883 Y87.654
G1 X120.547 Y78.691 E68.6087
G1 X120.690 Y79.504
G1 X129.799 Y88.249 E69.3962
G1 X129.716 Y88.844
G1 X120.833 Y80.317 E70.1640
G1 X120.977 Y81.130
G1 X129.632 Y89.439 E70.9123
G1 X129.549 Y90.034
G1 X121.120 Y81.943 E71.6409
G1 X121.263 Y82.756
G1 X137.410 Y98.257 E73.0368
G1 X137.409 Y98.931
G1 X121.407 Y83.569 E74.4202
G1 X121.550 Y84.381
G1 X137.408 Y99.606 E75.7911
G1 X137.407 Y100.280
G1 X121.693 Y85.194 E77.1496
G1 X121.837 Y86.007
G1 X137.407 Y100.955 E78.4956
G1 X137.406 Y101.629
G1 X121.980 Y86.820 E79.8292
G1 X122.124 Y87.633
G1 X137.405 Y102.304 E81.1503
G1 X137.404 Y102.978
G1 X122.267 Y88.446 E82.4589
G1 X122.410 Y89.259
G1 X137.403 Y103.653 E83.7550
G1 X137.403 Y104.328
G1 X122.509 Y90.029 E85.0426
G1 X122.509 Y90.704
G1 X137.402 Y105.002 E86.3301
G1 X137.401 Y105.677
G1 X122.509 Y91.379 E87.6176
G1 X122.509 Y92.055
G1 X137.400 Y106.351 E88.9050
G1 X137.399 Y107.026
G1 X122.509 Y92.730 E90.1923
G1 X122.509 Y93.405
G1 X137.412 Y107.713 E91.4806
G1 X137.434 Y108.409
G1 X122.509 Y94.080 E92.7709
G1 X122.509 Y94.756
G1 X137.455 Y109.105 E94.0630
G1 X137.477 Y109.802
G1 X122.509 Y95.431 E95.3571
G1 X122.509 Y96.106
G1 X137.542 Y110.539 E96.6567
G1 X137.666 Y111.333
G1 X122.509 Y96.782 E97.9670
G1 X122.509 Y97.457
G1 X137.807 Y112.144 E99.2896
G1 X137.949 Y112.955
G1 X122.509 Y98.132 E100.6244
G1 X122.509 Y98.807
G1 X138.090 Y113.766 E101.9714
G1 X138.231 Y114.577
G1 X122.509 Y99.483 E103.3306
G1 X122.509 Y100.158
G1 X138.373 Y115.388 E104.7021
G1 X138.514 Y116.199
G1 X122.509 Y100.833 E106.0857
G1 X122.509 Y101.509
G1 X138.655 Y117.010 E107.4816
G1 X138.797 Y117.821
G1 X122.509 Y102.184 E108.8897
G1 X122.509 Y102.859
G1 X138.938 Y118.632 E110.3101
G1 X139.080 Y119.443
G1 X122.509 Y103.534 E111.7426
G1 X122.509 Y104.210
G1 X139.221 Y120.254 E113.1874
G1 X139.362 Y121.065
G1 X122.509 Y104.885 E114.6444
G1 X122.509 Y105.560
G1 X139.504 Y121.876 E116.1136
G1 X139.645 Y122.687
G1 X122.509 Y106.236 E117.5951
G1 X122.509 Y106.911
G1 X139.786 Y123.498 E119.0887
G1 X139.928 Y124.309
G1 X122.509 Y107.586 E120.5946
G1 X122.509 Y108.261
G1 X140.069 Y125.120 E122.1127
G1 X140.210 Y125.931
G1 X122.509 Y108.937 E123.6430
G1 X122.509 Y109.612
G1 X140.352 Y126.742 E125.1856
G1 X140.493 Y127.553
G1 X122.493 Y110.272 E126.7417
G1 X122.391 Y110.850
G1 X140.635 Y128.364 E128.3188
G1 X140.780 Y129.179
G1 X122.289 Y111.427 E129.9173
G1 X122.187 Y112.005
G1 X140.973 Y130.039 E131.5413
G1 X140.963 Y130.705
G1 X122.086 Y112.582 E133.1733
G1 X121.984 Y113.160
G1 X140.917 Y131.336 E134.8100
G1 X140.817 Y131.915
G1 X121.882 Y113.737 E136.4469
G1 X121.780 Y114.315
G1 X140.709 Y132.487 E138.0833
G1 X140.557 Y133.017
G1 X121.678 Y114.892 E139.7154
G1 X121.576 Y115.470
G1 X135.067 Y128.421 E140.8817
G0 X130.188 Y127.582 F10800
G0 X126.931 Y128.030
G0 X123.971 Y129.455
G0 X121.479 Y131.869
G0 X122.242 Y134.581
G0 X123.716 Y136.761
G0 X125.786 Y138.393
G0 X128.260 Y139.320
G0 X130.900 Y139.450
G0 X136.000 Y138.095
G1 X135.772 Y137.877 E140.9014 F4800
G1 X135.349 Y138.146
G1 X136.000 Y138.771 E140.9576
G1 X135.808 Y139.262
G1 X134.926 Y138.415 E141.0339
G1 X134.504 Y138.685
G1 X135.347 Y139.495 E141.1068
G1 X134.885 Y139.727
G1 X134.081 Y138.954 E141.1763
G1 X133.656 Y139.221
G1 X134.424 Y139.959 E141.2427
G1 X133.962 Y140.191
G1 X133.105 Y139.368 E141.3169
G1 X132.553 Y139.514
G1 X133.501 Y140.423 E141.3988
G1 X132.947 Y140.567
G1 X132.002 Y139.660 E141.4804
G1 X131.451 Y139.806
G1 X132.341 Y140.660 E141.5573
G1 X131.734 Y140.753
G1 X130.881 Y139.934 E141.6311
G1 X130.139 Y139.897
G1 X131.128 Y140.847 E141.7166
G1 X130.522 Y140.940
G1 X129.398 Y139.861 E141.8138
G1 X128.656 Y139.824
G1 X129.900 Y141.018 E141.9213
G1 X129.054 Y140.881
G1 X127.783 Y139.661 E142.0312
G1 X126.629 Y139.228
G1 X128.207 Y140.744 E142.1676
G1 X127.361 Y140.606
G1 X125.347 Y138.673 E142.3417
G0 X122.669 Y136.102 F10800
G1 X119.494 Y133.054 E142.6162 F4800
G1 X119.920 Y134.138
G1 X126.461 Y140.417 E143.1816
G0 X124.950 Y139.643 F10800
G1 X120.590 Y135.457 E143.5586 F4800
G0 X121.691 Y134.488 F10800
G1 X119.368 Y132.258 E143.7594 F4800
G1 X119.242 Y131.462
G1 X121.415 Y133.548 E143.9473
G0 X121.480 Y131.994 F10800
G0 X121.954 Y130.688
G1 X119.336 Y128.175 E144.1736 F4800
G1 X119.438 Y127.598
G1 X122.306 Y130.351 E144.4215
G1 X122.658 Y130.014
G1 X119.540 Y127.020 E144.6911
G1 X119.642 Y126.443
G1 X123.010 Y129.677 E144.9824
G1 X123.367 Y129.344
G1 X119.743 Y125.865 E145.2956
G1 X119.845 Y125.288
G1 X123.739 Y129.026 E145.6323
G1 X124.204 Y128.797
G1 X119.947 Y124.710 E146.0003
G1 X120.049 Y124.133
G1 X124.668 Y128.567 E146.3996
G1 X125.133 Y128.338
G1 X120.151 Y123.555 E146.8303
G1 X120.253 Y122.978
G1 X125.598 Y128.109 E147.2924
G1 X126.064 Y127.881
G1 X120.354 Y122.400 E147.7860
G1 X120.456 Y121.822
G1 X126.545 Y127.668 E148.3124
G1 X127.090 Y127.516
G1 X120.558 Y121.245 E148.8771
G1 X120.660 Y120.667
G1 X127.696 Y127.423 E149.4854
G1 X128.303 Y127.329
G1 X120.762 Y120.090 E150.1374
G1 X120.864 Y119.512
G1 X128.909 Y127.236 E150.8328
G1 X129.524 Y127.152
G1 X120.965 Y118.935 E151.5727
G1 X121.067 Y118.357
G1 X130.172 Y127.098 E152.3599
G1 X130.999 Y127.217
G1 X121.169 Y117.780 E153.2097
G1 X121.271 Y117.202
G1 X131.837 Y127.346 E154.1231
G1 X132.675 Y127.475
G1 X121.373 Y116.625 E155.1002
G1 X121.475 Y116.047
G1 X133.621 Y127.708 E156.1502
G0 X129.583 Y90.068 F10800
G1 X137.411 Y97.582 E156.8269 F4800
G1 X137.411 Y96.908
G1 X130.156 Y89.942 E157.4541
G1 X130.728 Y89.816
G1 X137.412 Y96.233 E158.0320
G1 X137.413 Y95.559
G1 X131.301 Y89.691 E158.5604
G1 X131.873 Y89.565
G1 X137.414 Y94.884 E159.0393
G1 X137.415 Y94.210
G1 X132.446 Y89.440 E159.4689
G1 X133.018 Y89.314
G1 X137.415 Y93.535 E159.8490
G1 X137.416 Y92.861
G1 X133.591 Y89.188 E160.1797
G1 X134.163 Y89.063
G1 X137.417 Y92.186 E160.4609
G1 X137.418 Y91.512
G1 X134.736 Y88.937 E160.6928
G1 X135.309 Y88.811
G1 X137.445 Y90.862 E160.8775
G1 X137.499 Y90.239
G1 X135.881 Y88.686 E161.0173
G1 X136.454 Y88.560
G1 X137.553 Y89.615 E161.1123
G1 X137.607 Y88.992
G1 X137.026 Y88.435 E161.1625
G1 X137.347 Y88.067
G1 X137.662 Y88.369 E161.1897
G1 X137.764 Y87.792
G1 X137.431 Y87.473 E161.2185
G1 X137.515 Y86.878
G1 X137.866 Y87.215 E161.2488
G1 X137.968 Y86.637
G1 X137.598 Y86.283 E161.2808
G1 X137.682 Y85.688
G1 X138.070 Y86.060 E161.3143
G1 X138.172 Y85.483
G1 X136.775 Y84.142 E161.4350
G1 X137.599 Y84.257
G1 X138.274 Y84.905 E161.4934
G1 X138.376 Y84.328
G1 X137.933 Y83.903 E161.5317
G1 X138.016 Y83.307
G1 X138.478 Y83.751 E161.5716
G1 X138.580 Y83.173
G1 X138.100 Y82.712 E161.6131
G1 X138.183 Y82.118
G1 X138.682 Y82.596 E161.6562
G1 X138.784 Y82.019
G1 X138.267 Y81.523 E161.7009
G1 X138.351 Y80.928
G1 X138.886 Y81.441 E161.7472
G1 X138.988 Y80.864
G1 X138.434 Y80.333 E161.7951
G1 X138.518 Y79.738
G1 X139.090 Y80.287 E161.8445
G1 X139.192 Y79.709
G1 X138.602 Y79.143 E161.8955
G1 X138.685 Y78.548
G1 X139.294 Y79.132 E161.9482
G1 X139.396 Y78.555
G1 X138.769 Y77.953 E162.0024
G1 X138.853 Y77.358
G1 X139.498 Y77.977 E162.0582
G1 X139.600 Y77.400
G1 X138.936 Y76.763 E162.1156
; ------------------------------------
; Layer #2
; ------------------------------------
G21 ; mm
G90 ; abs
G92 E0 ; reset extr
M106 S0
G0 F4800 E-1.0000
G0 F300 Z0.900
G0 X137.181 Y88.266 F10800
G0 X121.193 Y131.422
G0 X121.609 Y133.323
G0 F4800 E0.0000
;segType:Loop
G1 X122.008 Y134.683 E0.0884 F4800
G1 X123.524 Y136.926 E0.2572
G1 X125.656 Y138.606 E0.4265
G1 X128.206 Y139.562 E0.5963
G1 X130.928 Y139.696 E0.7663
G1 X133.561 Y138.998 E0.9361
G1 X135.921 Y137.494 E1.1106
G1 X136.054 Y137.485 E1.1190
G1 X136.182 Y137.572 E1.1286
G1 X136.250 Y137.804 E1.1437
G1 X136.250 Y139.311 E1.2377
G1 X133.415 Y140.738 E1.4356
G1 X129.956 Y141.270 E1.6539
G1 X126.501 Y140.710 E1.8721
G1 X123.383 Y139.111 E2.0907
G1 X120.904 Y136.622 E2.3098
G1 X119.309 Y133.482 E2.5293
G1 X118.760 Y130.006 E2.7488
G1 X122.259 Y110.163 E4.0054
G1 X122.259 Y89.837 E5.2730
G1 X118.753 Y69.958 E6.5318
G1 X118.817 Y68.776 E6.6056
G1 X119.016 Y67.567 E6.6820
G1 X119.334 Y66.421 E6.7562
G1 X119.447 Y66.257 E6.7686
G1 X119.703 Y66.254 E6.7846
G1 X119.800 Y66.347 E6.7930
G1 X121.430 Y68.471 E6.9599
G1 X123.769 Y70.711 E7.1619
G1 X126.731 Y72.171 E7.3678
G1 X130.000 Y72.674 E7.5741
G1 X133.269 Y72.171 E7.7804
G1 X136.231 Y70.711 E7.9863
G1 X138.842 Y68.211 E8.2117
G1 X137.993 Y65.320 E8.3996
G1 X136.481 Y63.079 E8.5682
G1 X134.353 Y61.399 E8.7373
G1 X131.809 Y60.441 E8.9068
G1 X129.090 Y60.302 E9.0766
G1 X126.459 Y60.993 E9.2463
G1 X124.098 Y62.490 E9.4206
G1 X123.965 Y62.498 E9.4289
G1 X123.837 Y62.411 E9.4385
G1 X123.770 Y62.178 E9.4536
G1 X123.772 Y60.674 E9.5474
G1 X126.606 Y59.256 E9.7451
G1 X130.062 Y58.730 E9.9631
G1 X133.512 Y59.294 E10.1811
G1 X136.626 Y60.895 E10.3995
G1 X139.101 Y63.384 E10.6184
G1 X140.693 Y66.521 E10.8377
G1 X141.239 Y69.983 E11.0563
G1 X140.440 Y73.861 E11.3032
G1 X137.983 Y87.765 E12.1837
G1 X137.627 Y91.885 E12.4416
G1 X137.611 Y106.003 E13.3221
G1 X137.740 Y110.120 E13.5790
G1 X137.871 Y111.172 E13.6451
G1 X140.809 Y128.033 E14.7124
G1 X140.979 Y128.970 E14.7718
G1 X141.220 Y130.003 E14.8379
G1 X141.243 Y130.276 E14.8550
G1 X141.167 Y131.341 E14.9216
G1 X140.950 Y132.577 E14.9999
G1 X140.667 Y133.577 E15.0647
G1 X140.555 Y133.736 E15.0768
G1 X140.293 Y133.742 E15.0932
G1 X140.200 Y133.653 E15.1012
G1 X138.521 Y131.469 E15.2730
G1 X136.371 Y129.408 E15.4587
G1 X136.083 Y129.206 E15.4807
G1 X135.633 Y128.958 E15.5127
G1 X133.620 Y127.966 E15.6526
G1 X132.533 Y127.687 E15.7227
G1 X130.282 Y127.340 E15.8647
G1 X129.161 Y127.433 E15.9348
G1 X126.911 Y127.780 E16.0768
G1 X125.884 Y128.234 E16.1468
G1 X123.844 Y129.239 E16.2887
G1 X123.025 Y130.002 E16.3585
G1 X121.158 Y131.788 E16.5196
G1 X121.542 Y133.094 E16.6044
G0 X121.936 Y133.549 F10800
G0 X121.480 Y131.994
G0 X121.506 Y131.169
;segType:Perimeter
G1 X121.740 Y131.998 E16.6582 F2879
G1 X122.469 Y134.483 E16.8197
G1 X123.901 Y136.602 E16.9792
G1 X125.912 Y138.187 E17.1388
G1 X128.312 Y139.086 E17.2987
G1 X130.873 Y139.213 E17.4586
G1 X133.351 Y138.555 E17.6184
G1 X135.717 Y137.047 E17.7934
G1 X135.950 Y136.992 E17.8084
G1 X136.190 Y137.016 E17.8234
G1 X136.410 Y137.115 E17.8385
G1 X136.589 Y137.282 E17.8537
G1 X136.706 Y137.501 E17.8692
G1 X136.750 Y137.766 E17.8860
G1 X136.750 Y139.601 E18.0004
G1 X133.575 Y141.199 E18.2221
G1 X129.954 Y141.757 E18.4506
G1 X126.338 Y141.171 E18.6790
G1 X123.077 Y139.498 E18.9076
G1 X120.489 Y136.899 E19.1363
G1 X118.826 Y133.627 E19.3652
G1 X118.253 Y130.002 E19.5941
G1 X121.759 Y110.122 E20.8529
G1 X121.759 Y89.878 E22.1155
G1 X118.251 Y69.986 E23.3751
G1 X118.320 Y68.726 E23.4538
G1 X118.526 Y67.468 E23.5333
G1 X118.864 Y66.250 E23.6121
G1 X118.978 Y66.032 E23.6274
G1 X119.142 Y65.869 E23.6418
G1 X119.345 Y65.765 E23.6561
G1 X119.569 Y65.728 E23.6703
G1 X119.794 Y65.760 E23.6844
G1 X119.999 Y65.860 E23.6987
G1 X120.180 Y66.033 E23.7143
G1 X121.810 Y68.157 E23.8812
G1 X124.067 Y70.318 E24.0761
G1 X126.889 Y71.710 E24.2723
G1 X130.000 Y72.188 E24.4686
G1 X133.111 Y71.710 E24.6649
G1 X135.933 Y70.318 E24.8611
G1 X138.281 Y68.070 E25.0638
G1 X137.533 Y65.520 E25.2295
G1 X136.104 Y63.403 E25.3888
G1 X134.097 Y61.818 E25.5483
G1 X131.701 Y60.917 E25.7079
G1 X129.144 Y60.785 E25.8676
G1 X126.668 Y61.436 E26.0273
G1 X124.301 Y62.936 E26.2020
G1 X124.068 Y62.991 E26.2170
G1 X123.829 Y62.967 E26.2320
G1 X123.608 Y62.867 E26.2471
G1 X123.429 Y62.699 E26.2623
G1 X123.313 Y62.481 E26.2778
G1 X123.270 Y62.216 E26.2945
G1 X123.272 Y60.383 E26.4088
G1 X126.447 Y58.794 E26.6302
G1 X130.065 Y58.243 E26.8585
G1 X133.676 Y58.834 E27.0867
G1 X136.932 Y60.509 E27.3150
G1 X139.516 Y63.107 E27.5435
G1 X141.175 Y66.377 E27.7722
G1 X141.746 Y69.994 E28.0006
G1 X140.932 Y73.948 E28.2523
G1 X138.480 Y87.825 E29.1311
G1 X138.128 Y91.905 E29.3866
G1 X138.111 Y105.997 E30.2653
G1 X138.239 Y110.085 E30.5204
G1 X138.366 Y111.104 E30.5845
G1 X141.302 Y127.952 E31.6510
G1 X141.470 Y128.877 E31.7096
G1 X141.716 Y129.931 E31.7771
G1 X141.745 Y130.273 E31.7985
G1 X141.665 Y131.398 E31.8688
G1 X141.439 Y132.681 E31.9501
G1 X141.136 Y133.749 E32.0193
G1 X141.036 Y133.941 E32.0328
G1 X140.873 Y134.114 E32.0477
G1 X140.672 Y134.226 E32.0620
G1 X140.439 Y134.271 E32.0768
G1 X140.189 Y134.231 E32.0926
G1 X139.993 Y134.134 E32.1062
G1 X139.820 Y133.967 E32.1212
G1 X138.141 Y131.783 E32.2930
G1 X136.045 Y129.773 E32.4741
G1 X135.811 Y129.609 E32.4919
G1 X135.395 Y129.380 E32.5215
G1 X133.440 Y128.416 E32.6575
G1 X132.428 Y128.157 E32.7226
G1 X130.263 Y127.824 E32.8592
G1 X129.222 Y127.910 E32.9243
G1 X127.058 Y128.243 E33.0609
G1 X126.103 Y128.665 E33.1260
G1 X124.139 Y129.634 E33.2626
G1 X123.376 Y130.344 E33.3276
G1 X121.772 Y131.879 E33.4660
G1 X121.145 Y132.492
G0 X136.814 Y87.944 F10800
G0 X137.807 Y83.002
;segType:Loop
G1 X137.663 Y84.024 E33.5304 F4800
G1 X134.026 Y83.513 E33.7594
G1 X137.471 Y85.393 E34.0042
G1 X137.080 Y88.177 E34.1795
G1 X129.839 Y89.765 E34.6418
G1 X130.295 Y86.516 E34.8464
G1 X132.604 Y86.144 E34.9923
G1 X130.488 Y85.141 E35.1384
G1 X130.810 Y82.853 E35.2825
G1 X131.266 Y79.604 E35.4871
G1 X132.457 Y79.472 E35.5617
G1 X131.349 Y79.014 E35.6365
G1 X131.835 Y75.557 E35.8542
G1 X138.717 Y76.525 E36.2876
G1 X137.840 Y82.765 E36.6806
;segType:Perimeter
G0 X137.485 Y81.708 F10800
G1 X137.235 Y83.479 E36.7921 F2879
G1 X131.486 Y82.670 E37.1542
G1 X136.931 Y85.650 E37.5412
G1 X136.631 Y87.783 E37.6756
G1 X130.431 Y89.143 E38.0714
G1 X130.741 Y86.931 E38.2107
G1 X134.213 Y86.372 E38.4300
G1 X131.032 Y84.863 E38.6496
G1 X131.351 Y82.596 E38.7924
G1 X131.710 Y80.038 E38.9535
G1 X134.375 Y79.741 E39.1207
G1 X131.896 Y78.717 E39.2880
G1 X132.263 Y76.103 E39.4526
G1 X138.156 Y76.931 E39.8237
G1 X137.897 Y78.773 E39.9397
G1 X135.432 Y78.426 E40.0949
G1 X137.808 Y79.402 E40.2551
G1 X137.584 Y81.004 E40.3560
G1 X135.022 Y81.289 E40.5168
G1 X137.421 Y81.626 E40.6679
G1 X138.193 Y82.061
G0 F4800 E39.6679
G0 X135.959 Y84.292 F10800
G0 F4800 E40.6679
;segType:HShell
G1 X136.199 Y84.061 E40.6887 F4800
G1 X136.813 Y84.147
G1 X136.407 Y84.536 E40.7237
G1 X136.856 Y84.781
G1 X137.426 Y84.233 E40.7731
G0 X136.814 Y87.944 F10800
G0 X135.519 Y88.765
G1 X122.509 Y101.256 E41.8979 F4800
G1 X122.509 Y100.581
G1 X134.608 Y88.965 E42.9438
G1 X133.696 Y89.165
G1 X122.509 Y99.905 E43.9109
G1 X122.509 Y99.230
G1 X132.784 Y89.365 E44.7992
G1 X131.872 Y89.565
G1 X122.509 Y98.555 E45.6087
G1 X122.509 Y97.880
G1 X130.960 Y89.766 E46.3393
G0 X130.263 Y89.319 F10800
G0 X130.030 Y86.607
G1 X122.509 Y93.828 E46.9895 F4800
G1 X122.509 Y94.503
G1 X129.920 Y87.388 E47.6302
G1 X129.810 Y88.168
G1 X122.509 Y95.178 E48.2615
G1 X122.509 Y95.854
G1 X129.701 Y88.949 E48.8832
G1 X129.591 Y89.729
G1 X122.509 Y96.529 E49.4955
G1 X122.509 Y97.204
G1 X130.049 Y89.966 E50.1474
G0 X125.379 Y128.213 F10800
G1 X138.407 Y115.705 E51.2737 F4800
G1 X138.508 Y116.284
G1 X126.722 Y127.599 E52.2926
G1 X127.601 Y127.430
G1 X138.609 Y116.862 E53.2443
G1 X138.710 Y117.441
G1 X128.439 Y127.301 E54.1322
G1 X129.265 Y127.183
G1 X138.811 Y118.019 E54.9574
G1 X138.911 Y118.598
G1 X130.034 Y127.120 E55.7248
G1 X130.695 Y127.161
G1 X139.012 Y119.176 E56.4439
G1 X139.113 Y119.755
G1 X131.301 Y127.254 E57.1192
G1 X131.907 Y127.347
G1 X139.214 Y120.333 E57.7508
G1 X139.315 Y120.912
G1 X132.514 Y127.441 E58.3388
G1 X133.075 Y127.577
G1 X139.415 Y121.490 E58.8869
G1 X139.516 Y122.069
G1 X133.630 Y127.720 E59.3958
G1 X134.108 Y127.936
G1 X139.617 Y122.647 E59.8721
G1 X139.718 Y123.226
G1 X134.572 Y128.165 E60.3169
G1 X135.037 Y128.395
G1 X139.819 Y123.804 E60.7303
G1 X139.920 Y124.383
G1 X135.502 Y128.624 E61.1122
G1 X135.959 Y128.861
G1 X140.020 Y124.961 E61.4633
G1 X140.121 Y125.540
G1 X136.389 Y129.123 E61.7860
G1 X136.760 Y129.442
G1 X140.222 Y126.118 E62.0853
G1 X140.323 Y126.697
G1 X137.112 Y129.779 E62.3629
G1 X137.464 Y130.117
G1 X140.424 Y127.275 E62.6187
G1 X140.524 Y127.854
G1 X137.816 Y130.454 E62.8529
G1 X138.168 Y130.791
G1 X140.628 Y128.430 E63.0656
G1 X140.732 Y129.005
G1 X138.519 Y131.129 E63.2568
G1 X138.847 Y131.490
G1 X140.860 Y129.557 E63.4309
G1 X140.979 Y130.118
G1 X139.146 Y131.878 E63.5894
G1 X139.445 Y132.267
G1 X140.954 Y130.817 E63.7199
G1 X140.874 Y131.570
G1 X139.743 Y132.655 E63.8176
G1 X140.042 Y133.044
G1 X140.731 Y132.382 E63.8772
G1 X140.442 Y133.335
G1 X140.341 Y133.432 E63.8860
G0 X135.946 Y129.409 F10800
G0 X133.529 Y128.193
G0 X130.272 Y127.585
G0 X126.985 Y128.015
G0 X123.994 Y129.440
G0 X121.479 Y131.869
G0 X122.242 Y134.581
G0 X123.716 Y136.761
G0 X125.786 Y138.393
G0 X128.260 Y139.320
G0 X130.900 Y139.450
G0 X135.592 Y137.991
G1 X132.902 Y140.574 E64.1185 F4800
G1 X134.049 Y140.147
G1 X136.000 Y138.275 E64.2871
G1 X136.000 Y138.950
G1 X135.528 Y139.404 E64.3279
G0 X133.589 Y139.239 F10800
G1 X132.064 Y140.703 E64.4597 F4800
G1 X131.227 Y140.832
G1 X132.617 Y139.497 E64.5798
G1 X131.645 Y139.755
G1 X130.389 Y140.961 E64.6884
G1 X129.665 Y140.980
G1 X130.761 Y139.928 E64.7831
G1 X130.092 Y139.895
G1 X129.063 Y140.882 E64.8720
G1 X128.462 Y140.785
G1 X129.423 Y139.862 E64.9551
G1 X128.754 Y139.829
G1 X127.860 Y140.687 E65.0324
G1 X127.258 Y140.590
G1 X128.101 Y139.780 E65.1053
G1 X127.595 Y139.591
G1 X126.656 Y140.492 E65.1865
G1 X126.181 Y140.274
G1 X127.090 Y139.401 E65.2651
G1 X126.584 Y139.211
G1 X125.722 Y140.039 E65.3396
G1 X125.264 Y139.803
G1 X126.078 Y139.022 E65.4100
G1 X125.572 Y138.832
G1 X124.805 Y139.568 E65.4762
G1 X124.347 Y139.333
G1 X125.175 Y138.538 E65.5479
G1 X124.789 Y138.233
G1 X123.888 Y139.098 E65.6257
G1 X123.456 Y138.837
G1 X124.403 Y137.929 E65.7075
G1 X124.016 Y137.624
G1 X123.112 Y138.492 E65.7857
G1 X122.769 Y138.147
G1 X123.630 Y137.320 E65.8601
G1 X123.270 Y136.991
G1 X122.425 Y137.802 E65.9332
G1 X122.081 Y137.456
G1 X122.993 Y136.581 E66.0120
G1 X122.716 Y136.172
G1 X121.737 Y137.111 E66.0966
G1 X121.394 Y136.766
G1 X122.439 Y135.762 E66.1870
G1 X122.163 Y135.352
G1 X121.070 Y136.401 E66.2815
G1 X120.839 Y135.947
G1 X121.886 Y134.943 E66.3719
G1 X121.684 Y134.462
G1 X120.609 Y135.494 E66.4648
G1 X120.378 Y135.040
G1 X121.529 Y133.935 E66.5643
G1 X121.374 Y133.408
G1 X120.148 Y134.586 E66.6704
G1 X119.917 Y134.132
G1 X121.220 Y132.881 E66.7830
G1 X121.065 Y132.355
G1 X119.686 Y133.678 E66.9022
G1 X119.512 Y133.170
G1 X120.910 Y131.828 E67.0230
G0 X123.933 Y128.926 F10800
G1 X138.306 Y115.127 E68.2656 F4800
G1 X138.206 Y114.548
G1 X119.420 Y132.584 E69.8897
G1 X119.327 Y131.997
G1 X138.105 Y113.970 E71.5130
G1 X138.004 Y113.391
G1 X119.234 Y131.411 E73.1357
G1 X119.142 Y130.824
G1 X137.903 Y112.813 E74.7576
G1 X137.802 Y112.234
G1 X119.049 Y130.238 E76.3788
G1 X119.100 Y129.514
G1 X137.702 Y111.656 E77.9869
G1 X137.607 Y111.072
G1 X119.243 Y128.701 E79.5745
G1 X119.387 Y127.888
G1 X137.532 Y110.468 E81.1431
G1 X137.481 Y109.841
G1 X119.530 Y127.075 E82.6950
G1 X119.673 Y126.262
G1 X137.461 Y109.186 E84.2327
G1 X137.440 Y108.530
G1 X119.817 Y125.450 E85.7563
G1 X119.960 Y124.637
G1 X137.420 Y107.875 E87.2657
G1 X137.399 Y107.219
G1 X120.103 Y123.824 E88.7609
G1 X120.247 Y123.011
G1 X137.378 Y106.564 E90.2419
G1 X137.361 Y105.905
G1 X120.390 Y122.198 E91.7091
G1 X120.533 Y121.385
G1 X137.362 Y105.229 E93.1639
G1 X137.363 Y104.553
G1 X120.677 Y120.572 E94.6064
G1 X120.820 Y119.759
G1 X137.363 Y103.877 E96.0366
G1 X137.364 Y103.201
G1 X120.963 Y118.946 E97.4544
G1 X121.107 Y118.133
G1 X137.365 Y102.525 E98.8599
G1 X137.366 Y101.849
G1 X121.250 Y117.320 E100.2531
G1 X121.393 Y116.508
G1 X137.367 Y101.173 E101.6340
G1 X137.367 Y100.497
G1 X121.537 Y115.695 E103.0026
G1 X121.680 Y114.882
G1 X137.368 Y99.821 E104.3588
G1 X137.369 Y99.145
G1 X121.823 Y114.069 E105.7027
G1 X121.967 Y113.256
G1 X137.370 Y98.469 E107.0343
G1 X137.371 Y97.793
G1 X122.110 Y112.443 E108.3536
G1 X122.254 Y111.630
G1 X137.371 Y97.116 E109.6605
G1 X137.372 Y96.440
G1 X122.397 Y110.817 E110.9551
G1 X122.509 Y110.035
G1 X137.373 Y95.764 E112.2401
G1 X137.374 Y95.088
G1 X122.509 Y109.359 E113.5252
G1 X122.509 Y108.684
G1 X137.374 Y94.412 E114.8104
G1 X137.375 Y93.736
G1 X122.509 Y108.009 E116.0956
G1 X122.509 Y107.333
G1 X137.376 Y93.060 E117.3809
G1 X137.377 Y92.384
G1 X122.509 Y106.658 E118.6662
G1 X122.509 Y105.983
G1 X137.393 Y91.693 E119.9530
G1 X137.457 Y90.957
G1 X122.509 Y105.308 E121.2452
G1 X122.509 Y104.632
G1 X137.520 Y90.221 E122.5430
G1 X137.584 Y89.484
G1 X122.509 Y103.957 E123.8462
G1 X122.509 Y103.282
G1 X137.647 Y88.748 E125.1550
G1 X137.711 Y88.012
G1 X122.509 Y102.606 E126.4692
G1 X122.509 Y101.931
G1 X136.431 Y88.565 E127.6728
G0 X137.409 Y87.626 F10800
G1 X137.825 Y87.227 E127.7087 F4800
G1 X137.968 Y86.414
G1 X137.519 Y86.845 E127.7475
G1 X137.629 Y86.064
G1 X138.112 Y85.601 E127.7893
G1 X138.256 Y84.788
G1 X137.739 Y85.284 E127.8340
G1 X137.304 Y85.026
G1 X138.399 Y83.974 E127.9287
G1 X138.543 Y83.161
G1 X137.958 Y83.723 E127.9793
G1 X138.068 Y82.942
G1 X138.687 Y82.348 E128.0328
G1 X138.831 Y81.535
G1 X138.177 Y82.162 E128.0893
G1 X138.287 Y81.381
G1 X138.974 Y80.721 E128.1487
G1 X139.118 Y79.908
G1 X138.397 Y80.601 E128.2111
G1 X138.506 Y79.820
G1 X139.262 Y79.095 E128.2764
G1 X139.406 Y78.281
G1 X138.616 Y79.039 E128.3446
G1 X138.726 Y78.259
G1 X139.549 Y77.468 E128.4158
G1 X139.693 Y76.655
G1 X138.836 Y77.478 E128.4899
G1 X138.945 Y76.697
G1 X139.837 Y75.842 E128.5670
G1 X139.980 Y75.028
G1 X138.680 Y76.277 E128.6794
G1 X138.066 Y76.191
G1 X140.124 Y74.215 E128.8573
G1 X140.283 Y73.387
G1 X137.453 Y76.104 E129.1020
G1 X136.839 Y76.018
G1 X140.456 Y72.546 E129.4147
G1 X140.630 Y71.704
G1 X136.226 Y75.932 E129.7954
G1 X135.612 Y75.846
G1 X140.803 Y70.862 E130.2442
G1 X140.977 Y70.020
G1 X134.999 Y75.759 E130.7610
G1 X134.385 Y75.673
G1 X140.897 Y69.421 E131.3240
G1 X140.805 Y68.835
G1 X133.771 Y75.587 E131.9320
G1 X133.158 Y75.501
G1 X140.712 Y68.248 E132.5851
G1 X140.620 Y67.662
G1 X132.544 Y75.414 E133.2832
G1 X131.931 Y75.328
G1 X140.527 Y67.075 E134.0264
G1 X140.410 Y66.512
G1 X139.000 Y67.866 E134.1483
G1 X138.845 Y67.339
G1 X140.180 Y66.058 E134.2636
G1 X139.949 Y65.604
G1 X138.691 Y66.812 E134.3724
G1 X138.536 Y66.286
G1 X139.719 Y65.150 E134.4747
G1 X139.488 Y64.696
G1 X138.382 Y65.759 E134.5703
G1 X138.227 Y65.232
G1 X139.258 Y64.242 E134.6594
G1 X139.027 Y63.788
G1 X137.953 Y64.819 E134.7523
G1 X137.677 Y64.410
G1 X138.750 Y63.379 E134.8451
G1 X138.406 Y63.034
G1 X137.400 Y64.000 E134.9321
G1 X137.124 Y63.590
G1 X138.063 Y62.688 E135.0133
G1 X137.719 Y62.343
G1 X136.847 Y63.180 E135.0887
G1 X136.531 Y62.808
G1 X137.376 Y61.997 E135.1617
G1 X137.032 Y61.652
G1 X136.145 Y62.503 E135.2384
G1 X135.759 Y62.199
G1 X136.689 Y61.307 E135.3187
G1 X136.303 Y61.002
G1 X135.373 Y61.894 E135.3990
G1 X134.988 Y61.589
G1 X135.845 Y60.766 E135.4731
G1 X135.387 Y60.531
G1 X134.602 Y61.284 E135.5410
G1 X134.134 Y61.058
G1 X134.929 Y60.295 E135.6097
G1 X134.471 Y60.059
G1 X133.628 Y60.868 E135.6826
G1 X133.123 Y60.678
G1 X134.013 Y59.824 E135.7595
G1 X133.555 Y59.588
G1 X132.618 Y60.488 E135.8405
G1 X132.112 Y60.298
G1 X132.993 Y59.453 E135.9166
G1 X132.392 Y59.354
G1 X131.525 Y60.187 E135.9916
G1 X130.857 Y60.152
G1 X131.791 Y59.256 E136.0723
G1 X131.190 Y59.158
G1 X130.189 Y60.118 E136.1588
G1 X129.522 Y60.084
G1 X130.589 Y59.059 E136.2511
G1 X129.959 Y58.988
G1 X128.760 Y60.140 E136.3547
G0 X127.451 Y59.370 F10800
G1 X125.285 Y61.450 E136.5420 F4800
G0 X126.823 Y60.649 F10800
G1 X128.287 Y59.243 E136.6686 F4800
G1 X129.123 Y59.116
G1 X127.791 Y60.394 E136.7837
G0 X126.563 Y59.548 F10800
G1 X124.020 Y61.989 E137.0036 F4800
G1 X124.021 Y61.313
G1 X125.093 Y60.283 E137.0963
G0 X131.754 Y60.683 F10800
G0 X134.223 Y61.612
G0 X136.289 Y63.244
G0 X137.759 Y65.422
G0 X138.521 Y68.131
G0 X136.079 Y70.511
G0 X133.189 Y71.936
G0 X130.000 Y72.427
G0 X126.811 Y71.936
G0 X123.921 Y70.511
G0 X119.784 Y66.731
G1 X119.433 Y67.068 E137.1266 F4800
G1 X119.204 Y67.963
G1 X120.083 Y67.120 E137.2026
G1 X120.381 Y67.509
G1 X119.072 Y68.765 E137.3157
G1 X119.029 Y69.482
G1 X120.679 Y67.897 E137.4584
G1 X120.978 Y68.286
G1 X119.040 Y70.147 E137.6259
G1 X119.142 Y70.724
G1 X121.283 Y68.669 E137.8110
G1 X121.635 Y69.006
G1 X119.243 Y71.302 E138.0177
G1 X119.345 Y71.879
G1 X121.987 Y69.343 E138.2461
G1 X122.339 Y69.680
G1 X119.447 Y72.457 E138.4961
G1 X119.549 Y73.034
G1 X122.691 Y70.018 E138.7677
G1 X123.044 Y70.355
G1 X119.651 Y73.612 E139.0610
G1 X119.753 Y74.189
G1 X123.396 Y70.692 E139.3760
G1 X123.789 Y70.990
G1 X119.855 Y74.767 E139.7161
G1 X119.956 Y75.344
G1 X124.253 Y71.219 E140.0875
G1 X124.718 Y71.448
G1 X120.058 Y75.922 E140.4903
G1 X120.160 Y76.499
G1 X125.183 Y71.678 E140.9245
G1 X125.647 Y71.907
G1 X120.262 Y77.077 E141.3901
G1 X120.364 Y77.654
G1 X126.112 Y72.136 E141.8870
G1 X126.576 Y72.365
G1 X120.466 Y78.232 E142.4153
G1 X120.567 Y78.809
G1 X127.160 Y72.481 E142.9852
G1 X127.766 Y72.574
G1 X120.669 Y79.387 E143.5987
G1 X120.771 Y79.964
G1 X128.372 Y72.667 E144.2558
G1 X128.978 Y72.760
G1 X120.873 Y80.542 E144.9565
G1 X120.975 Y81.119
G1 X129.585 Y72.854 E145.7008
G1 X130.264 Y72.877
G1 X121.077 Y81.697 E146.4951
G1 X121.179 Y82.274
G1 X131.101 Y72.748 E147.3529
G1 X131.939 Y72.619
G1 X121.280 Y82.852 E148.2743
G1 X121.382 Y83.429
G1 X132.777 Y72.490 E149.2594
G1 X133.808 Y72.176
G1 X121.484 Y84.007 E150.3248
G1 X121.586 Y84.584
G1 X135.255 Y71.462 E151.5064
G0 X131.566 Y75.678 F10800
G1 X121.688 Y85.162 E152.3604 F4800
G1 X121.790 Y85.739
G1 X131.456 Y76.459 E153.1961
G1 X131.347 Y77.240
G1 X121.891 Y86.317 E154.0135
G1 X121.993 Y86.894
G1 X131.237 Y78.020 E154.8126
G1 X131.127 Y78.801
G1 X122.095 Y87.472 E155.5934
G1 X122.197 Y88.050
G1 X131.017 Y79.582 E156.3559
G1 X130.908 Y80.362
G1 X122.299 Y88.627 E157.1001
G1 X122.401 Y89.205
G1 X130.798 Y81.143 E157.8261
G1 X130.688 Y81.923
G1 X122.503 Y89.782 E158.5337
G1 X122.509 Y90.451
G1 X130.579 Y82.704 E159.2314
G1 X130.469 Y83.484
G1 X122.509 Y91.127 E159.9196
G1 X122.509 Y91.802
G1 X130.359 Y84.265 E160.5983
G1 X130.250 Y85.046
G1 X122.509 Y92.477 E161.2675
G1 X122.509 Y93.153
G1 X130.546 Y85.436 E161.9623
G1 X131.017 Y85.659
G1 X130.395 Y86.257 E162.0161
G1 X131.240 Y86.121
G1 X131.488 Y85.883 E162.0376
G0 X130.812 Y84.975 F10800
G0 X131.243 Y79.365
G1 X131.340 Y79.272 E162.0460 F4800
; ------------------------------------
; Layer #3
; ------------------------------------
G21 ; mm
G90 ; abs
G92 E0 ; reset extr
M106 S255
G0 F4800 E-1.0000
G0 F300 Z1.200
G0 X121.193 Y131.422 F10800
G0 X121.609 Y133.323
G0 F4800 E0.0000
;segType:Loop
G1 X122.008 Y134.683 E0.0884 F4800
G1 X123.524 Y136.926 E0.2572
G1 X125.656 Y138.606 E0.4265
G1 X128.206 Y139.562 E0.5963
G1 X130.928 Y139.696 E0.7663
G1 X133.561 Y138.998 E0.9361
G1 X135.921 Y137.494 E1.1106
G1 X136.054 Y137.485 E1.1190
G1 X136.182 Y137.572 E1.1286
G1 X136.250 Y137.804 E1.1437
G1 X136.250 Y139.311 E1.2377
G1 X133.415 Y140.738 E1.4356
G1 X129.956 Y141.270 E1.6539
G1 X126.501 Y140.710 E1.8721
G1 X123.383 Y139.111 E2.0907
G1 X120.904 Y136.622 E2.3098
G1 X119.309 Y133.482 E2.5293
G1 X118.760 Y130.006 E2.7488
G1 X122.259 Y110.163 E4.0054
G1 X122.259 Y89.837 E5.2730
G1 X118.753 Y69.958 E6.5318
G1 X118.817 Y68.776 E6.6056
G1 X119.016 Y67.567 E6.6820
G1 X119.334 Y66.421 E6.7562
G1 X119.447 Y66.257 E6.7686
G1 X119.703 Y66.254 E6.7846
G1 X119.800 Y66.347 E6.7930
G1 X121.430 Y68.471 E6.9599
G1 X123.769 Y70.711 E7.1619
G1 X126.731 Y72.171 E7.3678
G1 X130.000 Y72.674 E7.5741
G1 X133.269 Y72.171 E7.7804
G1 X136.231 Y70.711 E7.9863
G1 X138.842 Y68.211 E8.2117
G1 X137.993 Y65.320 E8.3996
G1 X136.481 Y63.079 E8.5682
G1 X134.353 Y61.399 E8.7373
G1 X131.809 Y60.441 E8.9068
G1 X129.090 Y60.302 E9.0766
G1 X126.459 Y60.993 E9.2463
G1 X124.098 Y62.490 E9.4206
G1 X123.965 Y62.498 E9.4289
G1 X123.837 Y62.411 E9.4385
G1 X123.770 Y62.178 E9.4536
G1 X123.772 Y60.674 E9.5474
G1 X126.606 Y59.256 E9.7451
G1 X130.062 Y58.730 E9.9631
G1 X133.512 Y59.294 E10.1811
G1 X136.626 Y60.895 E10.3995
G1 X139.101 Y63.384 E10.6184
G1 X140.693 Y66.521 E10.8377
G1 X141.239 Y69.983 E11.0563
G1 X140.166 Y75.192 E11.3879
G1 X138.059 Y87.114 E12.1430
G1 X137.587 Y92.588 E12.4856
G1 X137.573 Y104.694 E13.2406
G1 X137.744 Y110.168 E13.5821
G1 X137.916 Y111.554 E13.6692
G1 X140.683 Y127.425 E14.6739
G1 X140.908 Y128.668 E14.7527
G1 X141.219 Y129.996 E14.8377
G1 X141.243 Y130.269 E14.8549
G1 X141.170 Y131.318 E14.9204
G1 X140.946 Y132.595 E15.0013
G1 X140.667 Y133.577 E15.0649
G1 X140.556 Y133.734 E15.0769
G1 X140.291 Y133.741 E15.0934
G1 X140.201 Y133.654 E15.1013
G1 X138.504 Y131.450 E15.2748
G1 X136.404 Y129.434 E15.4563
G1 X136.047 Y129.183 E15.4835
G1 X135.464 Y128.863 E15.5250
G1 X133.726 Y128.006 E15.6458
G1 X132.315 Y127.644 E15.7367
G1 X130.367 Y127.344 E15.8596
G1 X128.912 Y127.464 E15.9506
G1 X126.965 Y127.764 E16.0735
G1 X125.632 Y128.353 E16.1643
G1 X123.868 Y129.223 E16.2870
G1 X122.803 Y130.214 E16.3777
G1 X121.158 Y131.788 E16.5197
G1 X121.542 Y133.094 E16.6046
G0 X121.937 Y133.551 F10800
G0 X121.480 Y131.994
G0 X121.506 Y131.168
;segType:Perimeter
G1 X121.740 Y131.998 E16.6583 F2879
G1 X122.469 Y134.483 E16.8198
G1 X123.901 Y136.602 E16.9793
G1 X125.912 Y138.187 E17.1390
G1 X128.312 Y139.086 E17.2988
G1 X130.873 Y139.213 E17.4587
G1 X133.351 Y138.555 E17.6186
G1 X135.717 Y137.047 E17.7936
G1 X135.950 Y136.992 E17.8085
G1 X136.190 Y137.016 E17.8235
G1 X136.410 Y137.115 E17.8386
G1 X136.589 Y137.282 E17.8539
G1 X136.706 Y137.501 E17.8693
G1 X136.750 Y137.766 E17.8861
G1 X136.750 Y139.601 E18.0006
G1 X133.575 Y141.199 E18.2222
G1 X129.954 Y141.757 E18.4507
G1 X126.338 Y141.171 E18.6791
G1 X123.077 Y139.498 E18.9077
G1 X120.489 Y136.899 E19.1364
G1 X118.826 Y133.627 E19.3653
G1 X118.253 Y130.002 E19.5942
G1 X121.759 Y110.122 E20.8531
G1 X121.759 Y89.878 E22.1156
G1 X118.251 Y69.986 E23.3752
G1 X118.320 Y68.726 E23.4539
G1 X118.526 Y67.468 E23.5334
G1 X118.864 Y66.250 E23.6122
G1 X118.978 Y66.032 E23.6275
G1 X119.142 Y65.869 E23.6420
G1 X119.345 Y65.765 E23.6562
G1 X119.569 Y65.728 E23.6704
G1 X119.794 Y65.760 E23.6845
G1 X119.999 Y65.860 E23.6988
G1 X120.180 Y66.033 E23.7144
G1 X121.810 Y68.157 E23.8814
G1 X124.067 Y70.318 E24.0762
G1 X126.889 Y71.710 E24.2724
G1 X130.000 Y72.188 E24.4687
G1 X133.111 Y71.710 E24.6650
G1 X135.933 Y70.318 E24.8612
G1 X138.281 Y68.070 E25.0639
G1 X137.533 Y65.520 E25.2297
G1 X136.104 Y63.403 E25.3890
G1 X134.097 Y61.818 E25.5485
G1 X131.701 Y60.917 E25.7081
G1 X129.144 Y60.785 E25.8678
G1 X126.668 Y61.436 E26.0274
G1 X124.301 Y62.936 E26.2022
G1 X124.068 Y62.991 E26.2171
G1 X123.829 Y62.967 E26.2321
G1 X123.608 Y62.867 E26.2472
G1 X123.429 Y62.699 E26.2625
G1 X123.313 Y62.481 E26.2779
G1 X123.270 Y62.216 E26.2947
G1 X123.272 Y60.383 E26.4090
G1 X126.447 Y58.794 E26.6304
G1 X130.065 Y58.243 E26.8586
G1 X133.676 Y58.834 E27.0868
G1 X136.932 Y60.509 E27.3151
G1 X139.516 Y63.107 E27.5437
G1 X141.175 Y66.377 E27.7723
G1 X141.746 Y69.994 E28.0007
G1 X140.658 Y75.278 E28.3372
G1 X138.556 Y87.174 E29.0905
G1 X138.087 Y92.608 E29.4306
G1 X138.073 Y104.688 E30.1840
G1 X138.243 Y110.133 E30.5237
G1 X138.411 Y111.486 E30.6088
G1 X141.175 Y127.344 E31.6126
G1 X141.398 Y128.574 E31.6906
G1 X141.714 Y129.922 E31.7769
G1 X141.745 Y130.265 E31.7984
G1 X141.667 Y131.374 E31.8677
G1 X141.435 Y132.699 E31.9516
G1 X141.136 Y133.749 E32.0197
G1 X141.041 Y133.932 E32.0325
G1 X140.879 Y134.109 E32.0475
G1 X140.677 Y134.223 E32.0620
G1 X140.442 Y134.270 E32.0769
G1 X140.182 Y134.229 E32.0933
G1 X139.991 Y134.132 E32.1067
G1 X139.820 Y133.967 E32.1215
G1 X138.124 Y131.763 E32.2949
G1 X136.078 Y129.800 E32.4718
G1 X135.774 Y129.586 E32.4949
G1 X135.225 Y129.285 E32.5340
G1 X133.545 Y128.456 E32.6508
G1 X132.210 Y128.114 E32.7368
G1 X130.348 Y127.827 E32.8542
G1 X128.974 Y127.941 E32.9403
G1 X127.112 Y128.228 E33.0577
G1 X125.851 Y128.785 E33.1437
G1 X124.162 Y129.618 E33.2611
G1 X123.154 Y130.556 E33.3470
G1 X121.772 Y131.879 E33.4663
G1 X121.145 Y132.492
G0 X136.814 Y87.944 F10800
G0 X137.807 Y83.002
;segType:Loop
G1 X137.663 Y84.024 E33.5306 F4800
G1 X134.026 Y83.513 E33.7597
G1 X137.471 Y85.393 E34.0045
G1 X137.080 Y88.177 E34.1798
G1 X129.839 Y89.765 E34.6421
G1 X130.295 Y86.516 E34.8467
G1 X132.604 Y86.144 E34.9926
G1 X130.488 Y85.141 E35.1387
G1 X130.810 Y82.853 E35.2827
G1 X131.266 Y79.604 E35.4874
G1 X132.457 Y79.472 E35.5620
G1 X131.349 Y79.014 E35.6368
G1 X131.835 Y75.557 E35.8544
G1 X138.717 Y76.525 E36.2879
G1 X137.840 Y82.765 E36.6809
;segType:Perimeter
G0 X137.485 Y81.708 F10800
G1 X137.235 Y83.479 E36.7924 F2879
G1 X131.486 Y82.670 E37.1545
G1 X136.931 Y85.650 E37.5415
G1 X136.631 Y87.783 E37.6759
G1 X130.431 Y89.143 E38.0717
G1 X130.741 Y86.931 E38.2110
G1 X134.213 Y86.372 E38.4303
G1 X131.032 Y84.863 E38.6499
G1 X131.351 Y82.596 E38.7927
G1 X131.710 Y80.038 E38.9538
G1 X134.375 Y79.741 E39.1210
G1 X131.896 Y78.717 E39.2883
G1 X132.263 Y76.103 E39.4529
G1 X138.156 Y76.931 E39.8240
G1 X137.897 Y78.773 E39.9400
G1 X135.432 Y78.426 E40.0952
G1 X137.808 Y79.402 E40.2554
G1 X137.584 Y81.004 E40.3563
G1 X135.022 Y81.289 E40.5171
G1 X137.421 Y81.626 E40.6682
G1 X138.193 Y82.061
G0 F4800 E39.6682
G0 X138.069 Y82.934 F10800
G0 F4800 E40.6682
;segType:Infill
G1 X138.427 Y82.934 E40.6905 F7200
;segType:HShell
G0 X139.227 Y79.068 F10800
G1 X139.132 Y78.976 E40.6988 F4800
G1 X139.025 Y79.549
G1 X139.125 Y79.645 E40.7075
G1 X139.023 Y80.223
G1 X138.923 Y80.127 E40.7161
G1 X138.821 Y80.704
G1 X138.921 Y80.800 E40.7247
G1 X138.819 Y81.377
G1 X138.719 Y81.281 E40.7334
G1 X138.617 Y81.859
G1 X138.717 Y81.955 E40.7420
G1 X138.615 Y82.532
G1 X138.515 Y82.436 E40.7507
G1 X138.413 Y83.013
G1 X138.513 Y83.109 E40.7593
G1 X138.411 Y83.687
G1 X138.311 Y83.591 E40.7679
G1 X138.209 Y84.168
G1 X138.309 Y84.264 E40.7766
G1 X138.207 Y84.841
G1 X138.107 Y84.745 E40.7852
G1 X138.021 Y85.338
G1 X138.105 Y85.419 E40.7925
;segType:Infill
G0 X137.692 Y84.270 F10800
G1 X137.692 Y85.238 E40.8528 F7200
G1 X137.692 Y85.618 E40.8765
G1 X137.692 Y88.232 E41.0395
G1 X137.715 Y87.961 E41.0565
G1 X137.362 Y87.961 E41.0785
G0 X137.361 Y92.987 F10800
G1 X122.509 Y92.987 E42.0047 F7200
G0 X122.509 Y98.013 F10800
G1 X137.211 Y98.013 E42.9216 F7200
;segType:HShell
G0 X137.230 Y101.461 F10800
G1 X137.326 Y101.553 E42.9300 F4800
G1 X137.327 Y100.879
G1 X137.208 Y100.764 E42.9403
G1 X137.209 Y100.090
G1 X137.328 Y100.204 E42.9506
G1 X137.329 Y99.530
G1 X137.210 Y99.415 E42.9609
G1 X137.211 Y98.741
G1 X137.330 Y98.855 E42.9712
G1 X137.330 Y98.181
G1 X137.211 Y98.066 E42.9815
G1 X137.212 Y97.392
G1 X137.331 Y97.506 E42.9918
G1 X137.332 Y96.832
G1 X137.213 Y96.717 E43.0021
G1 X137.214 Y96.043
G1 X137.333 Y96.157 E43.0124
G1 X137.334 Y95.483
G1 X137.214 Y95.368 E43.0227
G1 X137.215 Y94.693
G1 X137.334 Y94.808 E43.0330
;segType:Infill
G0 X132.457 Y89.437 F10800
G1 X132.457 Y127.451 E45.4037 F7200
G0 X134.682 Y128.171 F10800
G1 X140.533 Y128.171 E45.7685 F7200
G0 X137.692 Y130.312 F10800
G1 X137.692 Y111.817 E46.9219 F7200
G0 X137.437 Y108.066 F10800
G1 X122.509 Y108.066 E47.8529 F7200
G0 X122.509 Y103.040 F10800
G1 X137.279 Y103.040 E48.7740 F7200
G0 X137.868 Y113.092 F10800
G1 X121.996 Y113.092 E49.7639 F7200
G0 X120.223 Y123.145 F10800
G1 X139.620 Y123.145 E50.9735 F7200
G0 X138.744 Y118.118 F10800
G1 X121.109 Y118.118 E52.0733 F7200
G0 X121.986 Y113.150 F10800
G1 X121.986 Y130.659 E53.1652 F7200
G0 X125.505 Y128.171 F10800
G1 X119.337 Y128.171 E53.5498 F7200
G0 X119.516 Y133.197 F10800
G1 X121.312 Y133.197 E53.6618 F7200
G0 X121.986 Y135.090 F10800
G1 X121.986 Y137.360 E53.8034 F7200
G0 X122.845 Y138.224 F10800
G1 X124.777 Y138.224 E53.9239 F7200
G0 X127.221 Y139.450 F10800
G1 X127.221 Y140.584 E53.9946 F7200
G0 X132.457 Y140.642 F10800
G1 X132.457 Y139.540 E54.0633 F7200
G0 X135.227 Y138.224 F10800
G1 X136.000 Y138.224 E54.1115 F7200
G0 X130.900 Y139.450 F10800
G0 X128.260 Y139.320
G0 X125.786 Y138.393
G0 X123.716 Y136.761
G0 X122.242 Y134.581
G0 X121.479 Y131.869
G0 X124.017 Y129.424
G0 X127.040 Y127.999
G0 X130.357 Y127.589
G0 X133.635 Y128.234
G0 X136.240 Y129.618
G0 X140.516 Y133.197
G1 X140.161 Y133.197 E54.1336 F7200
G0 X135.909 Y129.386 F10800
G0 X133.635 Y128.234
G0 X130.357 Y127.589
G0 X127.221 Y127.503
G1 X127.221 Y72.490 E57.5644 F7200
G0 X136.079 Y70.511 F10800
G0 X138.521 Y68.131
G0 X137.759 Y65.422
G0 X136.289 Y63.244
G0 X134.223 Y61.612
G0 X131.754 Y60.683
G0 X127.221 Y60.544
G1 X127.221 Y59.405 E57.6354 F7200
G0 X132.457 Y59.365 F10800
G1 X132.457 Y60.427 E57.7017 F7200
G0 X136.558 Y62.829 F10800
G1 X138.203 Y62.829 E57.8043 F7200
G1 X137.692 Y62.315 E57.8495
G1 X137.692 Y64.432 E57.9815
G0 X140.650 Y67.855 F10800
G1 X138.997 Y67.855 E58.0846 F7200
G0 X137.692 Y69.651 F10800
G1 X137.692 Y76.138 E58.4892 F7200
G0 X132.457 Y72.540 F10800
G1 X132.457 Y75.402 E58.6677 F7200
G0 X131.253 Y77.908 F10800
G1 X120.409 Y77.908 E59.3439 F7200
G0 X121.295 Y82.934 F10800
G1 X130.547 Y82.934 E59.9209 F7200
G0 F4800 E58.9209
G0 X132.457 Y82.932 F10800
G0 F4800 E59.9209
G1 X132.457 Y83.049 E59.9282 F7200
G0 X136.814 Y87.944 F10800
G0 X130.263 Y89.319
G0 X129.840 Y87.961
G1 X122.181 Y87.961 E60.4058 F7200
G1 X121.986 Y86.850 E60.4761
G1 X121.986 Y69.342 E61.5680
G0 X120.647 Y67.855 F10800
G1 X119.221 Y67.855 E61.6569 F7200
G0 X119.522 Y72.882 F10800
G1 X129.767 Y72.882 E62.2958 F7200
G1 X130.233 Y72.882 E62.3249
G1 X140.387 Y72.882 E62.9581
G0 X139.352 Y77.908 F10800
G1 X138.775 Y77.908 E62.9940 F7200
; ------------------------------------
; Layer #4
; ------------------------------------
G21 ; mm
G90 ; abs
G92 E0 ; reset extr
M106 S255
G0 F4800 E-1.0000
G0 F300 Z1.500
G0 X137.181 Y88.266 F10800
G0 X121.193 Y131.422
G0 X121.609 Y133.323
G0 F4800 E0.0000
;segType:Loop
G1 X122.008 Y134.683 E0.0884 F4800
G1 X123.524 Y136.926 E0.2572
G1 X125.656 Y138.606 E0.4265
G1 X128.206 Y139.562 E0.5963
G1 X130.928 Y139.696 E0.7663
G1 X133.561 Y138.998 E0.9361
G1 X135.921 Y137.494 E1.1106
G1 X136.054 Y137.485 E1.1190
G1 X136.182 Y137.572 E1.1286
G1 X136.250 Y137.804 E1.1437
G1 X136.250 Y139.311 E1.2377
G1 X133.415 Y140.738 E1.4356
G1 X129.956 Y141.270 E1.6539
G1 X126.501 Y140.710 E1.8721
G1 X123.383 Y139.111 E2.0907
G1 X120.904 Y136.622 E2.3098
G1 X119.309 Y133.482 E2.5293
G1 X118.760 Y130.006 E2.7488
G1 X122.259 Y110.163 E4.0054
G1 X122.259 Y89.837 E5.2730
G1 X118.753 Y69.958 E6.5318
G1 X118.817 Y68.776 E6.6056
G1 X119.016 Y67.567 E6.6820
G1 X119.334 Y66.421 E6.7562
G1 X119.447 Y66.257 E6.7686
G1 X119.703 Y66.254 E6.7846
G1 X119.800 Y66.347 E6.7930
G1 X121.430 Y68.471 E6.9599
G1 X123.769 Y70.711 E7.1619
G1 X126.731 Y72.171 E7.3678
G1 X130.000 Y72.674 E7.5741
G1 X133.269 Y72.171 E7.7804
G1 X136.231 Y70.711 E7.9863
G1 X138.842 Y68.211 E8.2117
G1 X137.993 Y65.320 E8.3996
G1 X136.481 Y63.079 E8.5682
G1 X134.353 Y61.399 E8.7373
G1 X131.809 Y60.441 E8.9068
G1 X129.090 Y60.302 E9.0766
G1 X126.459 Y60.993 E9.2463
G1 X124.098 Y62.490 E9.4206
G1 X123.965 Y62.498 E9.4289
G1 X123.837 Y62.411 E9.4385
G1 X123.770 Y62.178 E9.4536
G1 X123.772 Y60.674 E9.5474
G1 X126.606 Y59.256 E9.7451
G1 X130.062 Y58.730 E9.9631
G1 X133.512 Y59.294 E10.1811
G1 X136.626 Y60.895 E10.3995
G1 X139.101 Y63.384 E10.6184
G1 X140.693 Y66.521 E10.8377
G1 X141.239 Y69.983 E11.0563
G1 X139.892 Y76.522 E11.4726
G1 X138.135 Y86.463 E12.1022
G1 X137.546 Y93.290 E12.5295
G1 X137.535 Y103.385 E13.1591
G1 X137.748 Y110.217 E13.5853
G1 X137.962 Y111.937 E13.6935
G1 X140.555 Y126.817 E14.6354
G1 X140.836 Y128.366 E14.7336
G1 X141.218 Y129.988 E14.8375
G1 X141.243 Y130.261 E14.8546
G1 X141.172 Y131.297 E14.9194
G1 X140.945 Y132.602 E15.0019
G1 X140.676 Y133.545 E15.0631
G1 X140.496 Y133.768 E15.0810
G1 X140.340 Y133.766 E15.0906
G1 X140.201 Y133.654 E15.1018
G1 X138.611 Y131.582 E15.2647
G1 X138.480 Y131.422 E15.2776
G1 X136.437 Y129.460 E15.4542
G1 X136.010 Y129.160 E15.4867
G1 X135.295 Y128.767 E15.5376
G1 X133.832 Y128.045 E15.6393
G1 X132.096 Y127.601 E15.7511
G1 X130.451 Y127.348 E15.8549
G1 X128.664 Y127.495 E15.9667
G1 X127.019 Y127.749 E16.0705
G1 X125.380 Y128.473 E16.1822
G1 X123.891 Y129.207 E16.2858
G1 X122.582 Y130.426 E16.3973
G1 X121.158 Y131.788 E16.5202
G1 X121.542 Y133.094 E16.6050
G0 X121.943 Y133.571 F10800
G0 X121.480 Y131.994
G0 X121.506 Y131.168
;segType:Perimeter
G1 X121.740 Y131.998 E16.6588 F2879
G1 X122.469 Y134.483 E16.8203
G1 X123.901 Y136.602 E16.9798
G1 X125.912 Y138.187 E17.1395
G1 X128.312 Y139.086 E17.2993
G1 X130.873 Y139.213 E17.4592
G1 X133.351 Y138.555 E17.6191
G1 X135.717 Y137.047 E17.7941
G1 X135.950 Y136.992 E17.8090
G1 X136.190 Y137.016 E17.8240
G1 X136.410 Y137.115 E17.8391
G1 X136.589 Y137.282 E17.8544
G1 X136.706 Y137.501 E17.8698
G1 X136.750 Y137.766 E17.8866
G1 X136.750 Y139.601 E18.0010
G1 X133.575 Y141.199 E18.2227
G1 X129.954 Y141.757 E18.4512
G1 X126.338 Y141.171 E18.6796
G1 X123.077 Y139.498 E18.9082
G1 X120.489 Y136.899 E19.1369
G1 X118.826 Y133.627 E19.3658
G1 X118.253 Y130.002 E19.5947
G1 X121.759 Y110.122 E20.8536
G1 X121.759 Y89.878 E22.1161
G1 X118.251 Y69.986 E23.3757
G1 X118.320 Y68.726 E23.4544
G1 X118.526 Y67.468 E23.5339
G1 X118.864 Y66.250 E23.6127
G1 X118.978 Y66.032 E23.6280
G1 X119.142 Y65.869 E23.6425
G1 X119.345 Y65.765 E23.6567
G1 X119.569 Y65.728 E23.6709
G1 X119.794 Y65.760 E23.6850
G1 X119.999 Y65.860 E23.6993
G1 X120.180 Y66.033 E23.7149
G1 X121.810 Y68.157 E23.8818
G1 X124.067 Y70.318 E24.0767
G1 X126.889 Y71.710 E24.2729
G1 X130.000 Y72.188 E24.4692
G1 X133.111 Y71.710 E24.6655
G1 X135.933 Y70.318 E24.8617
G1 X138.281 Y68.070 E25.0644
G1 X137.533 Y65.520 E25.2302
G1 X136.104 Y63.403 E25.3895
G1 X134.097 Y61.818 E25.5489
G1 X131.701 Y60.917 E25.7086
G1 X129.144 Y60.785 E25.8683
G1 X126.668 Y61.436 E26.0279
G1 X124.301 Y62.936 E26.2027
G1 X124.068 Y62.991 E26.2176
G1 X123.829 Y62.967 E26.2326
G1 X123.608 Y62.867 E26.2477
G1 X123.429 Y62.699 E26.2630
G1 X123.313 Y62.481 E26.2784
G1 X123.270 Y62.216 E26.2952
G1 X123.272 Y60.383 E26.4094
G1 X126.447 Y58.794 E26.6309
G1 X130.065 Y58.243 E26.8591
G1 X133.676 Y58.834 E27.0873
G1 X136.932 Y60.509 E27.3156
G1 X139.516 Y63.107 E27.5441
G1 X141.175 Y66.377 E27.7728
G1 X141.746 Y69.994 E28.0012
G1 X140.384 Y76.608 E28.4223
G1 X138.632 Y86.523 E29.0502
G1 X138.046 Y93.310 E29.4751
G1 X138.035 Y103.379 E30.1030
G1 X138.248 Y110.181 E30.5274
G1 X138.457 Y111.869 E30.6335
G1 X141.048 Y126.736 E31.5746
G1 X141.327 Y128.272 E31.6719
G1 X141.712 Y129.913 E31.7771
G1 X141.744 Y130.256 E31.7985
G1 X141.669 Y131.351 E31.8670
G1 X141.486 Y132.454 E31.9367
G1 X141.432 Y132.713 E31.9532
G1 X141.136 Y133.749 E32.0204
G1 X140.883 Y134.104 E32.0476
G1 X140.683 Y134.219 E32.0620
G1 X140.445 Y134.270 E32.0772
G1 X140.177 Y134.226 E32.0941
G1 X139.988 Y134.130 E32.1073
G1 X139.820 Y133.968 E32.1219
G1 X138.213 Y131.873 E32.2866
G1 X138.105 Y131.741 E32.2972
G1 X136.111 Y129.826 E32.4696
G1 X135.737 Y129.564 E32.4981
G1 X135.056 Y129.189 E32.5466
G1 X133.651 Y128.496 E32.6442
G1 X131.991 Y128.071 E32.7511
G1 X130.432 Y127.831 E32.8495
G1 X128.725 Y127.972 E32.9563
G1 X127.166 Y128.213 E33.0547
G1 X125.599 Y128.905 E33.1615
G1 X124.186 Y129.602 E33.2598
G1 X122.932 Y130.768 E33.3665
G1 X121.772 Y131.879 E33.4667
G1 X121.145 Y132.492
G0 X136.814 Y87.944 F10800
G0 X137.807 Y83.002
;segType:Loop
G1 X137.663 Y84.024 E33.5310 F4800
G1 X134.026 Y83.513 E33.7601
G1 X137.471 Y85.393 E34.0049
G1 X137.080 Y88.177 E34.1802
G1 X129.839 Y89.765 E34.6425
G1 X130.295 Y86.516 E34.8471
G1 X132.604 Y86.144 E34.9930
G1 X130.488 Y85.141 E35.1391
G1 X130.810 Y82.853 E35.2831
G1 X131.266 Y79.604 E35.4878
G1 X132.457 Y79.472 E35.5624
G1 X131.349 Y79.014 E35.6372
G1 X131.835 Y75.557 E35.8549
G1 X138.717 Y76.525 E36.2883
G1 X137.840 Y82.765 E36.6813
;segType:Perimeter
G0 X137.485 Y81.708 F10800
G1 X137.235 Y83.479 E36.7928 F2879
G1 X131.486 Y82.670 E37.1549
G1 X136.931 Y85.650 E37.5419
G1 X136.631 Y87.783 E37.6763
G1 X130.431 Y89.143 E38.0721
G1 X130.741 Y86.931 E38.2114
G1 X134.213 Y86.372 E38.4307
G1 X131.032 Y84.863 E38.6503
G1 X131.351 Y82.596 E38.7931
G1 X131.710 Y80.038 E38.9542
G1 X134.375 Y79.741 E39.1214
G1 X131.896 Y78.717 E39.2887
G1 X132.263 Y76.103 E39.4533
G1 X138.156 Y76.931 E39.8244
G1 X137.897 Y78.773 E39.9404
G1 X135.432 Y78.426 E40.0956
G1 X137.808 Y79.402 E40.2558
G1 X137.584 Y81.004 E40.3567
G1 X135.022 Y81.289 E40.5175
G1 X137.421 Y81.626 E40.6686
G1 X138.193 Y82.061
G0 F4800 E39.6686
G0 X138.388 Y82.934 F10800
G0 F4800 E40.6686
;segType:Infill
G1 X138.069 Y82.934 E40.6885 F7200
G0 X132.457 Y82.932 F10800
G1 X132.457 Y83.049 E40.6958 F7200
G0 X137.692 Y84.270 F10800
G1 X137.692 Y85.238 E40.7561 F7200
G0 X137.362 Y87.961 F10800
G1 X137.734 Y87.961 E40.7793 F7200
G1 X137.692 Y88.198 E40.7944
G1 X137.692 Y85.618 E40.9553
G0 X136.814 Y87.944 F10800
G0 X132.457 Y89.437
G1 X132.457 Y93.790 E41.2267 F7200
;segType:HShell
G0 X132.388 Y93.797 F10800
G1 X130.452 Y95.656 E41.3940 F4800
G1 X130.436 Y96.347
G1 X133.075 Y93.813 E41.6222
G1 X133.614 Y93.971
G1 X130.513 Y96.948 E41.8903
G1 X130.590 Y97.550
G1 X134.059 Y94.219 E42.1902
G1 X134.425 Y94.543
G1 X130.667 Y98.151 E42.5151
G1 X130.744 Y98.752
G1 X134.706 Y94.948 E42.8577
G1 X134.889 Y95.448
G1 X130.821 Y99.354 E43.2094
G1 X130.897 Y99.955
G1 X135.002 Y96.015 E43.5642
G1 X135.079 Y96.616
G1 X130.974 Y100.557 E43.9191
G1 X131.051 Y101.158
G1 X135.156 Y97.217 E44.2739
G1 X135.233 Y97.819
G1 X131.128 Y101.759 E44.6288
G1 X131.205 Y102.361
G1 X135.310 Y98.420 E44.9836
G1 X135.387 Y99.021
G1 X131.282 Y102.962 E45.3385
G1 X131.359 Y103.564
G1 X135.464 Y99.623 E45.6933
G1 X135.541 Y100.224
G1 X131.436 Y104.165 E46.0482
G1 X131.513 Y104.766
G1 X135.618 Y100.826 E46.4030
G1 X135.695 Y101.427
G1 X131.590 Y105.368 E46.7579
G1 X131.667 Y105.969
G1 X135.772 Y102.028 E47.1127
G1 X135.849 Y102.630
G1 X131.744 Y106.570 E47.4676
G1 X131.821 Y107.172
G1 X135.926 Y103.231 E47.8224
G1 X136.003 Y103.833
G1 X131.898 Y107.773 E48.1773
G1 X131.975 Y108.375
G1 X136.080 Y104.434 E48.5321
G1 X136.157 Y105.035
G1 X132.052 Y108.976 E48.8870
G1 X132.129 Y109.577
G1 X136.234 Y105.637 E49.2418
G1 X136.311 Y106.238
G1 X132.206 Y110.179 E49.5967
G1 X132.283 Y110.780
G1 X136.388 Y106.839 E49.9516
G1 X136.465 Y107.441
G1 X132.360 Y111.382 E50.3064
G1 X132.437 Y111.983
G1 X136.542 Y108.042 E50.6613
G1 X136.619 Y108.644
G1 X133.045 Y112.074 E50.9702
G1 X133.857 Y111.970
G1 X136.696 Y109.245 E51.2156
G1 X136.773 Y109.846
G1 X134.669 Y111.866 E51.3975
G1 X135.480 Y111.763
G1 X136.850 Y110.448 E51.5159
G1 X136.927 Y111.049
G1 X136.292 Y111.659 E51.5708
;segType:Infill
G0 X132.457 Y112.136 F10800
G1 X132.457 Y127.445 E52.5255 F7200
G0 X134.707 Y128.171 F10800
G1 X140.547 Y128.171 E52.8897 F7200
G0 X140.514 Y133.197 F10800
G1 X140.161 Y133.197 E52.9116 F7200
G0 X135.873 Y129.363 F10800
G0 X133.741 Y128.273
G0 X130.442 Y127.592
G0 X127.094 Y127.984
G0 X124.041 Y129.408
G0 X121.479 Y131.869
G0 X121.312 Y133.197
G1 X119.516 Y133.197 E53.0236 F7200
G0 X121.986 Y135.090 F10800
G1 X121.986 Y137.360 E53.1652 F7200
G0 X122.845 Y138.224 F10800
G1 X124.777 Y138.224 E53.2857 F7200
G0 X127.221 Y140.584 F10800
G1 X127.221 Y139.450 E53.3564 F7200
G0 X132.457 Y140.642 F10800
G1 X132.457 Y139.540 E53.4251 F7200
G0 X135.227 Y138.224 F10800
G1 X136.000 Y138.224 E53.4733 F7200
G0 X130.900 Y139.450 F10800
G0 X128.260 Y139.320
G0 X125.786 Y138.393
G0 X123.716 Y136.761
G0 X122.242 Y134.581
G0 X121.479 Y131.869
G0 X124.041 Y129.408
G0 X127.094 Y127.984
G0 X130.442 Y127.592
G0 X133.741 Y128.273
G0 X137.692 Y130.307
G1 X137.692 Y111.787 E54.6282 F7200
G0 X136.545 Y108.066 F10800
G1 X137.439 Y108.066 E54.6840 F7200
G0 X137.282 Y103.040 F10800
G1 X135.901 Y103.040 E54.7701 F7200
G0 X131.936 Y108.066 F10800
G1 X122.509 Y108.066 E55.3580 F7200
G0 X122.509 Y103.040 F10800
G1 X131.292 Y103.040 E55.9057 F7200
G0 X135.258 Y98.013 F10800
G1 X137.171 Y98.013 E56.0251 F7200
;segType:HShell
G0 X137.186 Y99.995 F10800
G1 X137.289 Y99.897 E56.0339 F4800
G1 X137.289 Y99.221
G1 X137.170 Y99.336 E56.0442
G1 X137.171 Y98.660
G1 X137.290 Y98.545 E56.0545
G1 X137.291 Y97.869
G1 X137.172 Y97.984 E56.0649
G1 X137.172 Y97.308
G1 X137.292 Y97.193 E56.0752
G1 X137.293 Y96.517
G1 X137.173 Y96.631 E56.0855
G1 X137.174 Y95.955
G1 X137.293 Y95.841 E56.0958
G1 X137.294 Y95.165
G1 X137.185 Y95.270 E56.1053
;segType:Infill
G0 X137.337 Y92.987 F10800
G1 X122.509 Y92.987 E57.0300 F7200
G0 X130.649 Y98.013 F10800
G1 X122.509 Y98.013 E57.5376 F7200
G0 X121.996 Y113.092 F10800
G1 X137.910 Y113.092 E58.5301 F7200
G0 X120.223 Y123.145 F10800
G1 X139.662 Y123.145 E59.7423 F7200
G0 X138.786 Y118.118 F10800
G1 X121.109 Y118.118 E60.8447 F7200
G0 X121.986 Y113.150 F10800
G1 X121.986 Y130.665 E61.9369 F7200
G0 X119.337 Y128.171 F10800
G1 X125.524 Y128.171 E62.3228 F7200
G0 X127.221 Y127.496 F10800
G1 X127.221 Y72.490 E65.7531 F7200
G0 X129.767 Y72.882 F10800
G1 X119.522 Y72.882 E66.3920 F7200
G0 X119.221 Y67.855 F10800
G1 X120.647 Y67.855 E66.4809 F7200
G0 X123.921 Y70.511 F10800
G0 X126.811 Y71.936
G0 X130.000 Y72.427
G0 X133.189 Y71.936
G0 X136.079 Y70.511
G0 X138.521 Y68.131
G0 X137.759 Y65.422
G0 X136.289 Y63.244
G0 X134.223 Y61.612
G0 X131.754 Y60.683
G0 X127.221 Y60.544
G1 X127.221 Y59.405 E66.5519 F7200
G0 X132.457 Y59.365 F10800
G1 X132.457 Y60.427 E66.6182 F7200
G0 X137.692 Y62.315 F10800
G1 X137.692 Y64.432 E66.7502 F7200
G0 X140.650 Y67.855 F10800
G1 X138.997 Y67.855 E66.8533 F7200
G0 X136.558 Y62.829 F10800
G1 X138.203 Y62.829 E66.9559 F7200
G0 X138.521 Y68.131 F10800
G0 X136.079 Y70.511
G0 X133.189 Y71.936
G0 X130.000 Y72.427
G0 X126.811 Y71.936
G0 X121.986 Y69.342
G1 X121.986 Y86.850 E68.0478 F7200
G1 X122.181 Y87.961 E68.1181
G1 X129.840 Y87.961 E68.5957
G0 X130.547 Y82.934 F10800
G1 X121.295 Y82.934 E69.1727 F7200
G0 X120.409 Y77.908 F10800
G1 X131.253 Y77.908 E69.8489 F7200
G0 X132.457 Y75.402 F10800
G1 X132.457 Y72.540 E70.0274 F7200
G0 X130.233 Y72.882 F10800
G1 X140.387 Y72.882 E70.6607 F7200
G0 X137.692 Y69.651 F10800
G1 X137.692 Y76.138 E71.0652 F7200
G0 X138.775 Y77.908 F10800
G1 X139.352 Y77.908 E71.1012 F7200
;segType:HShell
G0 X139.168 Y79.185 F10800
G1 X139.069 Y79.280 E71.1097 F4800
G1 X138.896 Y80.122
G1 X139.024 Y79.998 E71.1208
G1 X138.880 Y80.811
G1 X138.740 Y80.947 E71.1330
G1 X138.596 Y81.760
G1 X138.737 Y81.625 E71.1452
G1 X138.593 Y82.438
G1 X138.452 Y82.573 E71.1573
G1 X138.308 Y83.386
G1 X138.449 Y83.251 E71.1695
G1 X138.306 Y84.065
G1 X138.165 Y84.200 E71.1817
G1 X138.073 Y84.963
G1 X138.162 Y84.878 E71.1893
; ------------------------------------
; Layer #5
; ------------------------------------
G21 ; mm
G90 ; abs
G92 E0 ; reset extr
M106 S255
G0 F4800 E-1.0000
G0 F300 Z1.800
G0 X121.193 Y131.422 F10800
G0 X121.609 Y133.323
G0 F4800 E0.0000
;segType:Loop
G1 X122.008 Y134.683 E0.0884 F4800
G1 X123.524 Y136.926 E0.2572
G1 X125.656 Y138.606 E0.4265
G1 X128.206 Y139.562 E0.5963
G1 X130.928 Y139.696 E0.7663
G1 X133.561 Y138.998 E0.9361
G1 X135.921 Y137.494 E1.1106
G1 X136.054 Y137.485 E1.1190
G1 X136.182 Y137.572 E1.1286
G1 X136.250 Y137.804 E1.1437
G1 X136.250 Y139.311 E1.2377
G1 X133.415 Y140.738 E1.4356
G1 X129.956 Y141.270 E1.6539
G1 X126.501 Y140.710 E1.8721
G1 X123.383 Y139.111 E2.0907
G1 X120.904 Y136.622 E2.3098
G1 X119.309 Y133.482 E2.5293
G1 X118.760 Y130.006 E2.7488
G1 X122.259 Y110.163 E4.0054
G1 X122.259 Y89.837 E5.2730
G1 X118.753 Y69.958 E6.5318
G1 X118.817 Y68.776 E6.6056
G1 X119.016 Y67.567 E6.6820
G1 X119.334 Y66.421 E6.7562
G1 X119.447 Y66.257 E6.7686
G1 X119.703 Y66.254 E6.7846
G1 X119.800 Y66.347 E6.7930
G1 X121.430 Y68.471 E6.9599
G1 X123.769 Y70.711 E7.1619
G1 X126.731 Y72.171 E7.3678
G1 X130.000 Y72.674 E7.5741
G1 X133.269 Y72.171 E7.7804
G1 X136.231 Y70.711 E7.9863
G1 X138.842 Y68.211 E8.2117
G1 X137.993 Y65.320 E8.3996
G1 X136.481 Y63.079 E8.5682
G1 X134.353 Y61.399 E8.7373
G1 X131.809 Y60.441 E8.9068
G1 X129.090 Y60.302 E9.0766
G1 X126.459 Y60.993 E9.2463
G1 X124.098 Y62.490 E9.4206
G1 X123.965 Y62.498 E9.4289
G1 X123.837 Y62.411 E9.4385
G1 X123.770 Y62.178 E9.4536
G1 X123.772 Y60.674 E9.5474
G1 X126.606 Y59.256 E9.7451
G1 X130.062 Y58.730 E9.9631
G1 X133.512 Y59.294 E10.1811
G1 X136.626 Y60.895 E10.3995
G1 X139.101 Y63.384 E10.6184
G1 X140.693 Y66.521 E10.8377
G1 X141.239 Y69.983 E11.0563
G1 X139.618 Y77.852 E11.5573
G1 X138.211 Y85.813 E12.0615
G1 X137.506 Y93.992 E12.5735
G1 X137.496 Y102.076 E13.0776
G1 X137.753 Y110.265 E13.5885
G1 X138.008 Y112.320 E13.7176
G1 X140.429 Y126.208 E14.5968
G1 X140.764 Y128.063 E14.7144
G1 X141.216 Y129.981 E14.8372
G1 X141.242 Y130.252 E14.8542
G1 X141.151 Y131.482 E14.9312
G1 X140.938 Y132.627 E15.0038
G1 X140.676 Y133.545 E15.0633
G1 X140.497 Y133.766 E15.0811
G1 X140.335 Y133.763 E15.0912
G1 X140.201 Y133.655 E15.1019
G1 X138.602 Y131.570 E15.2658
G1 X138.286 Y131.225 E15.2949
G1 X136.469 Y129.486 E15.4518
G1 X135.974 Y129.138 E15.4896
G1 X135.125 Y128.671 E15.5500
G1 X133.937 Y128.086 E15.6325
G1 X131.877 Y127.558 E15.7652
G1 X130.536 Y127.351 E15.8498
G1 X128.415 Y127.527 E15.9825
G1 X127.074 Y127.733 E16.0671
G1 X125.129 Y128.593 E16.1997
G1 X123.915 Y129.191 E16.2842
G1 X122.360 Y130.638 E16.4166
G1 X121.158 Y131.788 E16.5203
G1 X121.542 Y133.094 E16.6052
G0 X121.940 Y133.560 F10800
G0 X121.480 Y131.994
G0 X121.506 Y131.168
;segType:Perimeter
G1 X121.740 Y131.998 E16.6589 F2879
G1 X122.469 Y134.483 E16.8204
G1 X123.901 Y136.602 E16.9799
G1 X125.912 Y138.187 E17.1396
G1 X128.312 Y139.086 E17.2994
G1 X130.873 Y139.213 E17.4593
G1 X133.351 Y138.555 E17.6192
G1 X135.717 Y137.047 E17.7942
G1 X135.950 Y136.992 E17.8091
G1 X136.190 Y137.016 E17.8241
G1 X136.410 Y137.115 E17.8392
G1 X136.589 Y137.282 E17.8545
G1 X136.706 Y137.501 E17.8699
G1 X136.750 Y137.766 E17.8867
G1 X136.750 Y139.601 E18.0012
G1 X133.575 Y141.199 E18.2229
G1 X129.954 Y141.757 E18.4513
G1 X126.338 Y141.171 E18.6798
G1 X123.077 Y139.498 E18.9083
G1 X120.489 Y136.899 E19.1370
G1 X118.826 Y133.627 E19.3660
G1 X118.253 Y130.002 E19.5948
G1 X121.759 Y110.122 E20.8537
G1 X121.759 Y89.878 E22.1162
G1 X118.251 Y69.986 E23.3758
G1 X118.320 Y68.726 E23.4545
G1 X118.526 Y67.468 E23.5340
G1 X118.864 Y66.250 E23.6128
G1 X118.978 Y66.032 E23.6282
G1 X119.142 Y65.869 E23.6426
G1 X119.345 Y65.765 E23.6569
G1 X119.569 Y65.728 E23.6710
G1 X119.794 Y65.760 E23.6852
G1 X119.999 Y65.860 E23.6994
G1 X120.180 Y66.033 E23.7150
G1 X121.810 Y68.157 E23.8820
G1 X124.067 Y70.318 E24.0768
G1 X126.889 Y71.710 E24.2730
G1 X130.000 Y72.188 E24.4693
G1 X133.111 Y71.710 E24.6657
G1 X135.933 Y70.318 E24.8619
G1 X138.281 Y68.070 E25.0645
G1 X137.533 Y65.520 E25.2303
G1 X136.104 Y63.403 E25.3896
G1 X134.097 Y61.818 E25.5491
G1 X131.701 Y60.917 E25.7087
G1 X129.144 Y60.785 E25.8684
G1 X126.668 Y61.436 E26.0280
G1 X124.301 Y62.936 E26.2028
G1 X124.068 Y62.991 E26.2177
G1 X123.829 Y62.967 E26.2327
G1 X123.608 Y62.867 E26.2478
G1 X123.429 Y62.699 E26.2631
G1 X123.313 Y62.481 E26.2785
G1 X123.270 Y62.216 E26.2953
G1 X123.272 Y60.383 E26.4096
G1 X126.447 Y58.794 E26.6310
G1 X130.065 Y58.243 E26.8592
G1 X133.676 Y58.834 E27.0874
G1 X136.932 Y60.509 E27.3158
G1 X139.516 Y63.107 E27.5443
G1 X141.175 Y66.377 E27.7729
G1 X141.746 Y69.994 E28.0013
G1 X140.110 Y77.938 E28.5072
G1 X138.708 Y85.873 E29.0096
G1 X138.006 Y94.012 E29.5191
G1 X137.997 Y102.070 E30.0216
G1 X138.252 Y110.230 E30.5307
G1 X138.503 Y112.252 E30.6578
G1 X140.922 Y126.128 E31.5362
G1 X141.255 Y127.969 E31.6529
G1 X141.711 Y129.905 E31.7769
G1 X141.744 Y130.246 E31.7983
G1 X141.647 Y131.541 E31.8793
G1 X141.427 Y132.732 E31.9548
G1 X141.136 Y133.749 E32.0208
G1 X140.889 Y134.098 E32.0475
G1 X140.689 Y134.217 E32.0620
G1 X140.448 Y134.269 E32.0773
G1 X140.171 Y134.223 E32.0949
G1 X139.986 Y134.128 E32.1078
G1 X139.820 Y133.968 E32.1222
G1 X138.212 Y131.871 E32.2870
G1 X137.922 Y131.554 E32.3138
G1 X136.143 Y129.851 E32.4673
G1 X135.701 Y129.541 E32.5010
G1 X134.886 Y129.093 E32.5590
G1 X133.757 Y128.536 E32.6375
G1 X131.773 Y128.028 E32.7652
G1 X130.517 Y127.835 E32.8445
G1 X128.476 Y128.004 E32.9722
G1 X127.221 Y128.197 E33.0514
G1 X125.348 Y129.025 E33.1791
G1 X124.209 Y129.586 E33.2583
G1 X122.711 Y130.981 E33.3859
G1 X121.772 Y131.879 E33.4670
G1 X121.145 Y132.492
G0 X136.814 Y87.944 F10800
G0 X137.807 Y83.002
;segType:Loop
G1 X137.663 Y84.024 E33.5313 F4800
G1 X134.026 Y83.513 E33.7604
G1 X137.471 Y85.393 E34.0052
G1 X137.080 Y88.177 E34.1805
G1 X129.839 Y89.765 E34.6428
G1 X130.295 Y86.516 E34.8474
G1 X132.604 Y86.144 E34.9933
G1 X130.488 Y85.141 E35.1393
G1 X130.810 Y82.853 E35.2834
G1 X131.266 Y79.604 E35.4880
G1 X132.457 Y79.472 E35.5627
G1 X131.349 Y79.014 E35.6374
G1 X131.835 Y75.557 E35.8551
G1 X138.717 Y76.525 E36.2885
G1 X137.840 Y82.765 E36.6815
;segType:Perimeter
G0 X137.485 Y81.708 F10800
G1 X137.235 Y83.479 E36.7931 F2879
G1 X131.486 Y82.670 E37.1551
G1 X136.931 Y85.650 E37.5422
G1 X136.631 Y87.783 E37.6765
G1 X130.431 Y89.143 E38.0724
G1 X130.741 Y86.931 E38.2117
G1 X134.213 Y86.372 E38.4310
G1 X131.032 Y84.863 E38.6505
G1 X131.351 Y82.596 E38.7933
G1 X131.710 Y80.038 E38.9544
G1 X134.375 Y79.741 E39.1217
G1 X131.896 Y78.717 E39.2889
G1 X132.263 Y76.103 E39.4536
G1 X138.156 Y76.931 E39.8247
G1 X137.897 Y78.773 E39.9407
G1 X135.432 Y78.426 E40.0959
G1 X137.808 Y79.402 E40.2561
G1 X137.584 Y81.004 E40.3570
G1 X135.022 Y81.289 E40.5177
G1 X137.421 Y81.626 E40.6688
G1 X138.193 Y82.061
G0 F4800 E39.6688
G0 X138.388 Y82.934 F10800
G0 F4800 E40.6688
;segType:Infill
G1 X138.069 Y82.934 E40.6888 F7200
G0 X137.692 Y84.270 F10800
G1 X137.692 Y85.238 E40.7491 F7200
G1 X137.692 Y85.618 E40.7728
G1 X137.692 Y88.924 E40.9790
G1 X137.362 Y87.961 E41.0425
G1 X137.775 Y87.961 E41.0683
G0 X130.263 Y89.319 F10800
G0 X121.295 Y82.934
G1 X130.547 Y82.934 E41.6452 F7200
G0 F4800 E40.6452
G0 X132.457 Y83.049 F10800
G0 F4800 E41.6452
G1 X132.457 Y82.932 E41.6525 F7200
G0 X136.814 Y87.944 F10800
G0 X130.263 Y89.319
G0 X131.253 Y77.908
G1 X120.409 Y77.908 E42.3288 F7200
G0 X132.457 Y75.402 F10800
G1 X132.457 Y72.540 E42.5073 F7200
G0 X137.692 Y76.138 F10800
G1 X137.692 Y69.651 E42.9119 F7200
G0 X138.997 Y67.855 F10800
G1 X140.650 Y67.855 E43.0150 F7200
G0 X137.692 Y62.315 F10800
G1 X137.692 Y64.432 E43.1470 F7200
G0 X138.203 Y62.829 F10800
G1 X136.558 Y62.829 E43.2496 F7200
G0 X132.457 Y60.427 F10800
G1 X132.457 Y59.365 E43.3159 F7200
G0 X127.221 Y59.405 F10800
G1 X127.221 Y60.544 E43.3869 F7200
G0 X131.754 Y60.683 F10800
G0 X134.223 Y61.612
G0 X136.289 Y63.244
G0 X137.759 Y65.422
G0 X138.521 Y68.131
G0 X136.079 Y70.511
G0 X127.221 Y72.490
G1 X127.221 Y127.489 E46.8168 F7200
G0 X132.457 Y127.458 F10800
G1 X132.457 Y112.147 E47.7716 F7200
G0 X137.442 Y108.066 F10800
G1 X137.242 Y108.066 E47.7841 F7200
G0 X136.599 Y103.040 F10800
G1 X137.285 Y103.040 E47.8269 F7200
G0 X137.171 Y98.013 F10800
G1 X135.955 Y98.013 E47.9027 F7200
;segType:HShell
G0 X135.487 Y95.061 F10800
G1 X133.591 Y93.240 E48.0667 F4800
;segType:Infill
G0 X137.342 Y92.987 F10800
G1 X122.509 Y92.987 E48.9917 F7200
G0 X122.509 Y98.013 F10800
G1 X129.951 Y98.013 E49.4558 F7200
G0 X130.595 Y103.040 F10800
G1 X122.509 Y103.040 E49.9601 F7200
G0 X121.986 Y113.150 F10800
G1 X121.986 Y130.671 E51.0528 F7200
G0 X125.544 Y128.171 F10800
G1 X119.337 Y128.171 E51.4399 F7200
G0 X119.516 Y133.197 F10800
G1 X121.312 Y133.197 E51.5518 F7200
G0 X121.986 Y135.090 F10800
G1 X121.986 Y137.360 E51.6934 F7200
G0 X122.845 Y138.224 F10800
G1 X124.777 Y138.224 E51.8139 F7200
G0 X127.221 Y139.450 F10800
G1 X127.221 Y140.584 E51.8846 F7200
G0 X132.457 Y140.642 F10800
G1 X132.457 Y139.540 E51.9533 F7200
G0 X136.000 Y138.224 F10800
G1 X135.227 Y138.224 E52.0015 F7200
G0 X130.900 Y139.450 F10800
G0 X128.260 Y139.320
G0 X125.786 Y138.393
G0 X123.716 Y136.761
G0 X122.242 Y134.581
G0 X121.479 Y131.869
G0 X124.064 Y129.392
G0 X127.148 Y127.969
G0 X130.526 Y127.596
G0 X133.846 Y128.313
G0 X136.305 Y129.670
G0 X140.161 Y133.197
G1 X140.481 Y133.197 E52.0215 F7200
G0 X140.533 Y128.171 F10800
G1 X134.732 Y128.171 E52.3832 F7200
G0 X137.692 Y130.301 F10800
G1 X137.692 Y111.846 E53.5342 F7200
G0 X139.578 Y123.145 F10800
G1 X120.223 Y123.145 E54.7412 F7200
G0 X121.109 Y118.118 F10800
G1 X138.702 Y118.118 E55.8383 F7200
G0 X137.847 Y113.092 F10800
G1 X121.996 Y113.092 E56.8268 F7200
G0 X122.509 Y108.066 F10800
G1 X131.239 Y108.066 E57.3712 F7200
;segType:HShell
G0 X131.702 Y111.685 F10800
G1 X132.214 Y112.177 E57.4155 F4800
G1 X132.840 Y112.102
G1 X131.604 Y110.915 E57.5224
G1 X131.505 Y110.145
G1 X133.464 Y112.026 E57.6917
G1 X134.087 Y111.949
G1 X131.406 Y109.375 E57.9235
G1 X131.308 Y108.606
G1 X134.710 Y111.872 E58.2176
G1 X135.328 Y111.790
G1 X131.209 Y107.836 E58.5737
G1 X131.111 Y107.066
G1 X135.946 Y111.708 E58.9917
G1 X136.564 Y111.626
G1 X131.012 Y106.296 E59.4716
G1 X130.913 Y105.526
G1 X137.181 Y111.542 E60.0134
G1 X137.629 Y111.298
G1 X130.815 Y104.756 E60.6025
G1 X130.716 Y103.986
G1 X137.534 Y110.531 E61.1920
G1 X137.462 Y109.787
G1 X130.618 Y103.216 E61.7837
G1 X130.519 Y102.446
G1 X137.364 Y109.017 E62.3754
G1 X137.265 Y108.247
G1 X130.421 Y101.676 E62.9671
G1 X130.322 Y100.906
G1 X137.167 Y107.477 E63.5589
G1 X137.068 Y106.708
G1 X130.223 Y100.136 E64.1506
G1 X130.125 Y99.366
G1 X136.970 Y105.938 E64.7424
G1 X136.871 Y105.168
G1 X130.026 Y98.596 E65.3341
G1 X129.928 Y97.826
G1 X136.773 Y104.398 E65.9259
G1 X136.674 Y103.628
G1 X129.829 Y97.056 E66.5176
G1 X129.736 Y96.292
G1 X136.575 Y102.858 E67.1089
G1 X136.477 Y102.088
G1 X129.760 Y95.640 E67.6896
G1 X129.901 Y95.100
G1 X136.378 Y101.318 E68.2496
G1 X136.280 Y100.548
G1 X130.101 Y94.616 E68.7837
G1 X130.381 Y94.210
G1 X136.181 Y99.779 E69.2851
G1 X136.083 Y99.009
G1 X130.713 Y93.854 E69.7493
G1 X131.110 Y93.559
G1 X135.984 Y98.239 E70.1707
G1 X135.886 Y97.469
G1 X131.568 Y93.323 E70.5440
G1 X132.108 Y93.167
G1 X135.787 Y96.699 E70.8620
G1 X135.689 Y95.930
G1 X132.725 Y93.084 E71.1182
